graphics/entity/agricultural-camp/agricultural-camp-lut.cube
#Created by: Affinity Photo (Serif Europe Ltd.)
TITLE "agricultural-camp-lut"
#LUT size
LUT_3D_SIZE 17
#data domain
DOMAIN_MIN 0.0 0.0 0.0
DOMAIN_MAX 1.0 1.0 1.0
#LUT data points
0.000000 0.000000 0.000000
0.054688 0.015767 0.000000
0.093750 0.031535 0.000000
0.117188 0.047302 0.000000
0.141337 0.063070 0.000000
0.161949 0.078837 0.000000
0.199753 0.094605 0.000000
0.253491 0.110372 0.000000
0.313070 0.126140 0.000000
0.391955 0.141907 0.000000
0.472834 0.157675 0.000000
0.555709 0.173442 0.000000
0.640577 0.189210 0.000000
0.727441 0.204977 0.000000
0.816299 0.220745 0.000000
0.907152 0.236512 0.000000
1.000000 0.252280 0.000000
0.062500 0.058594 0.000000
0.117188 0.058594 0.000000
0.156250 0.073376 0.000000
0.179688 0.088158 0.000000
0.203837 0.102940 0.000000
0.224449 0.117722 0.000000
0.258406 0.132504 0.000000
0.306278 0.147286 0.000000
0.359992 0.162068 0.000000
0.433012 0.176850 0.000000
0.508026 0.191632 0.000000
0.585035 0.206414 0.000000
0.664039 0.221196 0.000000
0.745037 0.235978 0.000000
0.828030 0.250760 0.000000
0.913018 0.265542 0.000000
1.000000 0.280324 0.000000
0.125000 0.109375 0.000000
0.171875 0.109375 0.000000
0.218750 0.109375 0.000000
0.242188 0.123172 0.000000
0.266337 0.136968 0.000000
0.286949 0.150765 0.000000
0.317059 0.164561 0.000000
0.359066 0.178358 0.000000
0.406915 0.192154 0.000000
0.474069 0.205951 0.000000
0.543218 0.219747 0.000000
0.614362 0.233544 0.000000
0.687500 0.247340 0.000000
0.762633 0.261137 0.000000
0.839761 0.274934 0.000000
0.918883 0.288730 0.000000
1.000000 0.302527 0.000000
0.187500 0.152344 0.000000
0.226562 0.152344 0.000000
0.265625 0.152344 0.000000
0.304688 0.152344 0.000000
0.328837 0.165155 0.000000
0.349449 0.177966 0.000000
0.375712 0.190777 0.000000
0.411854 0.203588 0.000000
0.453837 0.216399 0.000000
0.515126 0.229210 0.000000
0.578410 0.242021 0.000000
0.643688 0.254832 0.000000
0.710961 0.267643 0.000000
0.780229 0.280455 0.000000
0.851491 0.293266 0.000000
0.924748 0.306077 0.000000
1.000000 0.318888 0.000000
0.250000 0.187500 0.000000
0.281250 0.191584 0.000000
0.312500 0.195669 0.000000
0.343750 0.199753 0.000000
0.391337 0.203837 0.000000
0.411949 0.215663 0.000000
0.434366 0.227489 0.000000
0.464642 0.239314 0.000000
0.500760 0.251140 0.000000
0.556184 0.262965 0.000000
0.613602 0.274791 0.000000
0.673015 0.286617 0.000000
0.734423 0.298442 0.000000
0.797825 0.310268 0.000000
0.863222 0.322093 0.000000
0.930614 0.333919 0.000000
1.000000 0.345745 0.000000
0.312500 0.214844 0.000000
0.335938 0.223796 0.000000
0.359375 0.232748 0.000000
0.382812 0.241701 0.000000
0.426672 0.250653 0.000000
0.474449 0.259605 0.000000
0.493019 0.270445 0.000000
0.517430 0.281286 0.000000
0.547682 0.292126 0.000000
0.597241 0.302966 0.000000
0.648794 0.313806 0.000000
0.702341 0.324646 0.000000
0.757884 0.335486 0.000000
0.815421 0.346326 0.000000
0.874952 0.357167 0.000000
0.936479 0.368007 0.000000
1.000000 0.378847 0.000000
0.375000 0.234375 0.000000
0.390625 0.248195 0.000000
0.406250 0.262016 0.000000
0.421875 0.275836 0.000000
0.462006 0.289656 0.000000
0.506839 0.303476 0.000000
0.551672 0.317297 0.000000
0.570218 0.327151 0.000000
0.594605 0.337006 0.000000
0.638298 0.346861 0.000000
0.683986 0.356715 0.000000
0.731668 0.366570 0.000000
0.781345 0.376425 0.000000
0.833017 0.386279 0.000000
0.886683 0.396134 0.000000
0.942344 0.405989 0.000000
1.000000 0.415843 0.000000
0.437500 0.246094 0.000000
0.445312 0.264782 0.000000
0.453125 0.283470 0.000000
0.460938 0.302159 0.000000
0.497340 0.320847 0.000000
0.539229 0.339535 0.000000
0.581117 0.358223 0.000000
0.623005 0.376912 0.000000
0.641527 0.385781 0.000000
0.679355 0.394650 0.000000
0.719177 0.403519 0.000000
0.760994 0.412388 0.000000
0.804806 0.421258 0.000000
0.850613 0.430127 0.000000
0.898414 0.438996 0.000000
0.948210 0.447865 0.000000
1.000000 0.456734 0.000000
0.500000 0.250000 0.000000
0.500000 0.273556 0.000000
0.500000 0.297112 0.000000
0.500000 0.320669 0.000000
0.532675 0.344225 0.000000
0.571619 0.367781 0.000000
0.610562 0.391337 0.000000
0.649506 0.414894 0.000000
0.688450 0.438450 0.000000
0.720412 0.446334 0.000000
0.754369 0.454217 0.000000
0.790321 0.462101 0.000000
0.828267 0.469985 0.000000
0.868209 0.477869 0.000000
0.910144 0.485752 0.000000
0.954075 0.493636 0.000000
1.000000 0.501520 0.000000
0.562500 0.267038 0.000000
0.562500 0.293135 0.000000
0.562500 0.319232 0.000000
0.562500 0.345329 0.000000
0.591090 0.371426 0.000000
0.625166 0.397523 0.000000
0.659242 0.423620 0.000000
0.693318 0.449717 0.000000
0.727394 0.475814 0.000000
0.761469 0.501912 0.000000
0.789561 0.508810 0.000000
0.819648 0.515708 0.000000
0.851729 0.522606 0.000000
0.885805 0.529505 0.000000
0.921875 0.536403 0.000000
0.959940 0.543301 0.000000
1.000000 0.550200 0.000000
0.625000 0.343608 0.000000
0.625000 0.365976 0.000000
0.625000 0.388345 0.000000
0.625000 0.410714 0.000000
0.649506 0.433083 0.000000
0.678714 0.455452 0.000000
0.707922 0.477821 0.000000
0.737130 0.500190 0.000000
0.766337 0.522559 0.000000
0.795545 0.544928 0.000000
0.824753 0.567297 0.000000
0.848974 0.573210 0.000000
0.875190 0.579122 0.000000
0.903400 0.585035 0.000000
0.933606 0.590948 0.000000
0.965805 0.596861 0.000000
1.000000 0.602774 0.000000
0.687500 0.429557 0.000000
0.687500 0.448198 0.000000
0.687500 0.466838 0.000000
0.687500 0.485479 0.000000
0.707922 0.504120 0.000000
0.732262 0.522761 0.000000
0.756601 0.541402 0.000000
0.780941 0.560042 0.000000
0.805281 0.578683 0.000000
0.829621 0.597324 0.000000
0.853961 0.615965 0.000000
0.878301 0.634605 0.000000
0.898651 0.639533 0.000000
0.920996 0.644460 0.000000
0.945336 0.649387 0.000000
0.971671 0.654315 0.000000
1.000000 0.659242 0.000000
0.750000 0.524886 0.000000
0.750000 0.539799 0.000000
0.750000 0.554711 0.000000
0.750000 0.569624 0.000000
0.766337 0.584536 0.000000
0.785809 0.599449 0.000000
0.805281 0.614362 0.000000
0.824753 0.629274 0.000000
0.844225 0.644187 0.000000
0.863697 0.659100 0.000000
0.883169 0.674012 0.000000
0.902641 0.688925 0.000000
0.922112 0.703837 0.000000
0.938592 0.707779 0.000000
0.957067 0.711721 0.000000
0.977536 0.715663 0.000000
1.000000 0.719605 0.000000
0.812500 0.629595 0.000000
0.812500 0.640779 0.000000
0.812500 0.651964 0.000000
0.812500 0.663148 0.000000
0.824753 0.674333 0.000000
0.839357 0.685517 0.000000
0.853961 0.696702 0.000000
0.868565 0.707886 0.000000
0.883169 0.719071 0.000000
0.897773 0.730255 0.000000
0.912377 0.741440 0.000000
0.926980 0.752624 0.000000
0.941584 0.763808 0.000000
0.956188 0.774993 0.000000
0.968798 0.777949 0.000000
0.983401 0.780906 0.000000
1.000000 0.783862 0.000000
0.875000 0.743684 0.000000
0.875000 0.751140 0.000000
0.875000 0.758596 0.000000
0.875000 0.766052 0.000000
0.883169 0.773509 0.000000
0.892905 0.780965 0.000000
0.902641 0.788421 0.000000
0.912377 0.795878 0.000000
0.922112 0.803334 0.000000
0.931848 0.810790 0.000000
0.941584 0.818247 0.000000
0.951320 0.825703 0.000000
0.961056 0.833159 0.000000
0.970792 0.840616 0.000000
0.980528 0.848072 0.000000
0.989267 0.850043 0.000000
1.000000 0.852014 0.000000
0.937500 0.867152 0.000000
0.937500 0.870880 0.000000
0.937500 0.874608 0.000000
0.937500 0.878336 0.000000
0.941584 0.882064 0.000000
0.946452 0.885793 0.000000
0.951320 0.889521 0.000000
0.956188 0.893249 0.000000
0.961056 0.896977 0.000000
0.965924 0.900705 0.000000
0.970792 0.904433 0.000000
0.975660 0.908162 0.000000
0.980528 0.911890 0.000000
0.985396 0.915618 0.000000
0.990264 0.919346 0.000000
0.995132 0.923074 0.000000
1.000000 0.924060 0.000000
1.000000 1.000000 0.000000
1.000000 1.000000 0.000000
1.000000 1.000000 0.000000
1.000000 1.000000 0.000000
1.000000 1.000000 0.000000
1.000000 1.000000 0.000000
1.000000 1.000000 0.000000
1.000000 1.000000 0.000000
1.000000 1.000000 0.000000
1.000000 1.000000 0.000000
1.000000 1.000000 0.000000
1.000000 1.000000 0.000000
1.000000 1.000000 0.000000
1.000000 1.000000 0.000000
1.000000 1.000000 0.000000
1.000000 1.000000 0.000000
1.000000 1.000000 0.000000
0.000000 0.000000 0.058594
0.058594 0.000000 0.058594
0.101562 0.015767 0.054688
0.128906 0.031535 0.050781
0.156962 0.047302 0.046875
0.181480 0.063070 0.042969
0.219344 0.078837 0.039062
0.271122 0.094605 0.035156
0.328742 0.110372 0.031250
0.405668 0.126140 0.035156
0.484589 0.141907 0.039062
0.565504 0.157675 0.042969
0.648414 0.173442 0.046875
0.733318 0.189210 0.050781
0.820217 0.204977 0.054688
0.909111 0.220745 0.058594
1.000000 0.236512 0.062500
0.000000 0.062500 0.058594
0.054688 0.062500 0.054688
0.093750 0.077282 0.050781
0.117188 0.092064 0.046875
0.145422 0.106846 0.042969
0.170901 0.121628 0.039062
0.209726 0.136410 0.035156
0.262467 0.151192 0.031250
0.321049 0.165974 0.027344
0.398936 0.180756 0.031250
0.478818 0.195538 0.035156
0.560695 0.210320 0.039062
0.644567 0.225102 0.042969
0.730433 0.239884 0.046875
0.818294 0.254666 0.050781
0.908150 0.269448 0.054688
1.000000 0.284230 0.058594
0.062500 0.117188 0.050781
0.109375 0.117188 0.046875
0.156250 0.117188 0.046875
0.179688 0.130984 0.042969
0.207922 0.144781 0.039062
0.233401 0.158577 0.035156
0.268380 0.172374 0.031250
0.315255 0.186170 0.027344
0.367971 0.199967 0.023438
0.439993 0.213763 0.027344
0.514010 0.227560 0.031250
0.590022 0.241356 0.035156
0.668028 0.255153 0.039062
0.748029 0.268949 0.042969
0.830025 0.282746 0.046875
0.914015 0.296543 0.050781
1.000000 0.310339 0.054688
0.125000 0.164062 0.042969
0.164062 0.164062 0.039062
0.203125 0.164062 0.039062
0.242188 0.164062 0.039062
0.270422 0.176874 0.035156
0.295901 0.189685 0.031250
0.327033 0.202496 0.027344
0.368042 0.215307 0.023438
0.414894 0.228118 0.019531
0.481050 0.240929 0.023438
0.549202 0.253740 0.027344
0.619348 0.266551 0.031250
0.691489 0.279362 0.035156
0.765625 0.292173 0.039062
0.841755 0.304984 0.042969
0.919880 0.317795 0.046875
1.000000 0.330606 0.050781
0.187500 0.203125 0.035156
0.218750 0.203125 0.031250
0.250000 0.207209 0.031250
0.281250 0.211294 0.031250
0.332922 0.215378 0.031250
0.358401 0.227204 0.027344
0.385686 0.239029 0.023438
0.420830 0.250855 0.019531
0.461816 0.262680 0.015625
0.522108 0.274506 0.019531
0.584394 0.286332 0.023438
0.648675 0.298157 0.027344
0.714951 0.309983 0.031250
0.783221 0.321809 0.035156
0.853486 0.333634 0.039062
0.925746 0.345460 0.042969
1.000000 0.357285 0.046875
0.250000 0.234375 0.027344
0.273438 0.234375 0.023438
0.296875 0.243327 0.023438
0.320312 0.252280 0.023438
0.368256 0.261232 0.023438
0.420901 0.270184 0.023438
0.444339 0.281024 0.019531
0.473618 0.291865 0.015625
0.508739 0.302705 0.011719
0.563165 0.313545 0.015625
0.619586 0.324385 0.019531
0.678002 0.335225 0.023438
0.738412 0.346065 0.027344
0.800817 0.356905 0.031250
0.865217 0.367746 0.035156
0.931611 0.378586 0.039062
1.000000 0.389426 0.042969
0.312500 0.257812 0.019531
0.328125 0.257812 0.015625
0.343750 0.271633 0.015625
0.359375 0.285453 0.015625
0.403590 0.299273 0.015625
0.453291 0.313094 0.015625
0.502992 0.326914 0.015625
0.526406 0.336769 0.011719
0.555661 0.346623 0.007812
0.604222 0.356478 0.011719
0.654778 0.366333 0.015625
0.707328 0.376187 0.019531
0.761873 0.386042 0.023438
0.818413 0.395897 0.027344
0.876947 0.405751 0.031250
0.937476 0.415606 0.035156
1.000000 0.425461 0.039062
0.375000 0.273438 0.011719
0.382812 0.273438 0.007812
0.390625 0.292126 0.007812
0.398438 0.310814 0.007812
0.438925 0.329502 0.007812
0.485681 0.348191 0.007812
0.532437 0.366879 0.007812
0.579194 0.385567 0.007812
0.602584 0.394436 0.003906
0.645279 0.403305 0.007812
0.689970 0.412175 0.011719
0.736655 0.421044 0.015625
0.785334 0.429913 0.019531
0.836009 0.438782 0.023438
0.888678 0.447652 0.027344
0.943342 0.456521 0.031250
1.000000 0.465390 0.035156
0.437500 0.281250 0.003906
0.437500 0.281250 0.000000
0.437500 0.304806 0.000000
0.437500 0.328362 0.000000
0.474259 0.351919 0.000000
0.518071 0.375475 0.000000
0.561883 0.399031 0.000000
0.605694 0.422587 0.000000
0.649506 0.446144 0.000000
0.686336 0.454027 0.003906
0.725161 0.461911 0.007812
0.765981 0.469795 0.011719
0.808796 0.477679 0.015625
0.853605 0.485562 0.019531
0.900408 0.493446 0.023438
0.949207 0.501330 0.027344
1.000000 0.509214 0.031250
0.500000 0.299867 0.003906
0.500000 0.299867 0.000000
0.500000 0.325964 0.000000
0.500000 0.352061 0.000000
0.532675 0.378158 0.000000
0.571619 0.404255 0.000000
0.610562 0.430352 0.000000
0.649506 0.456449 0.000000
0.688450 0.482547 0.000000
0.727394 0.508644 0.000000
0.760353 0.515542 0.003906
0.795308 0.522440 0.007812
0.832257 0.529338 0.011719
0.871201 0.536237 0.015625
0.912139 0.543135 0.019531
0.955072 0.550033 0.023438
1.000000 0.556931 0.027344
0.562500 0.371747 0.003906
0.562500 0.371747 0.000000
0.562500 0.394116 0.000000
0.562500 0.416485 0.000000
0.591090 0.438854 0.000000
0.625166 0.461222 0.000000
0.659242 0.483591 0.000000
0.693318 0.505960 0.000000
0.727394 0.528329 0.000000
0.761469 0.550698 0.000000
0.795545 0.573067 0.000000
0.824634 0.578980 0.003906
0.855718 0.584893 0.007812
0.888797 0.590805 0.011719
0.923870 0.596718 0.015625
0.960938 0.602631 0.019531
1.000000 0.608544 0.023438
0.625000 0.453006 0.003906
0.625000 0.453006 0.000000
0.625000 0.471647 0.000000
0.625000 0.490288 0.000000
0.649506 0.508929 0.000000
0.678714 0.527569 0.000000
0.707922 0.546210 0.000000
0.737130 0.564851 0.000000
0.766337 0.583492 0.000000
0.795545 0.602132 0.000000
0.824753 0.620773 0.000000
0.853961 0.639414 0.000000
0.879179 0.644341 0.003906
0.906392 0.649269 0.007812
0.935600 0.654196 0.011719
0.966803 0.659123 0.015625
1.000000 0.664051 0.019531
0.687500 0.543646 0.003906
0.687500 0.543646 0.000000
0.687500 0.558558 0.000000
0.687500 0.573471 0.000000
0.707922 0.588383 0.000000
0.732262 0.603296 0.000000
0.756601 0.618209 0.000000
0.780941 0.633121 0.000000
0.805281 0.648034 0.000000
0.829621 0.662946 0.000000
0.853961 0.677859 0.000000
0.878301 0.692772 0.000000
0.902641 0.707684 0.000000
0.923988 0.711626 0.003906
0.947331 0.715568 0.007812
0.972668 0.719510 0.011719
1.000000 0.723452 0.015625
0.750000 0.643665 0.003906
0.750000 0.643664 0.000000
0.750000 0.654849 0.000000
0.750000 0.666033 0.000000
0.766337 0.677218 0.000000
0.785809 0.688402 0.000000
0.805281 0.699587 0.000000
0.824753 0.710771 0.000000
0.844225 0.721956 0.000000
0.863697 0.733140 0.000000
0.883169 0.744325 0.000000
0.902641 0.755509 0.000000
0.922112 0.766694 0.000000
0.941584 0.777878 0.000000
0.959062 0.780834 0.003906
0.978533 0.783791 0.007812
1.000000 0.786747 0.011719
0.812500 0.753063 0.003906
0.812500 0.753063 0.000000
0.812500 0.760520 0.000000
0.812500 0.767976 0.000000
0.824753 0.775432 0.000000
0.839357 0.782889 0.000000
0.853961 0.790345 0.000000
0.868565 0.797801 0.000000
0.883169 0.805257 0.000000
0.897773 0.812714 0.000000
0.912377 0.820170 0.000000
0.926980 0.827626 0.000000
0.941584 0.835083 0.000000
0.956188 0.842539 0.000000
0.970792 0.849995 0.000000
0.984399 0.851966 0.003906
1.000000 0.853937 0.007812
0.875000 0.871842 0.003906
0.875000 0.871842 0.000000
0.875000 0.875570 0.000000
0.875000 0.879298 0.000000
0.883169 0.883026 0.000000
0.892905 0.886754 0.000000
0.902641 0.890483 0.000000
0.912377 0.894211 0.000000
0.922112 0.897939 0.000000
0.931848 0.901667 0.000000
0.941584 0.905395 0.000000
0.951320 0.909123 0.000000
0.961056 0.912851 0.000000
0.970792 0.916580 0.000000
0.980528 0.920308 0.000000
0.990264 0.924036 0.000000
1.000000 0.925021 0.003906
0.937500 1.000000 0.003906
0.937500 1.000000 0.000000
0.937500 1.000000 0.000000
0.937500 1.000000 0.000000
0.941584 1.000000 0.000000
0.946452 1.000000 0.000000
0.951320 1.000000 0.000000
0.956188 1.000000 0.000000
0.961056 1.000000 0.000000
0.965924 1.000000 0.000000
0.970792 1.000000 0.000000
0.975660 1.000000 0.000000
0.980528 1.000000 0.000000
0.985396 1.000000 0.000000
0.990264 1.000000 0.000000
0.995132 1.000000 0.000000
1.000000 1.000000 0.000000
0.000000 0.000000 0.109375
0.054688 0.000000 0.109375
0.109375 0.000000 0.109375
0.140625 0.015767 0.101562
0.172587 0.031535 0.093750
0.201012 0.047302 0.085938
0.238934 0.063070 0.078125
0.288754 0.078837 0.070312
0.344415 0.094605 0.062500
0.419382 0.110372 0.070312
0.496343 0.126140 0.078125
0.575299 0.141907 0.085938
0.656250 0.157675 0.093750
0.739195 0.173442 0.101562
0.824136 0.189210 0.109375
0.911070 0.204977 0.117188
1.000000 0.220745 0.125000
0.000000 0.062500 0.109375
0.050781 0.062500 0.101562
0.101562 0.062500 0.101562
0.128906 0.077282 0.093750
0.161047 0.092064 0.085938
0.190433 0.106846 0.078125
0.229317 0.121628 0.070312
0.280098 0.136410 0.062500
0.336721 0.151192 0.054688
0.412650 0.165974 0.062500
0.490573 0.180756 0.070312
0.570491 0.195538 0.078125
0.652403 0.210320 0.085938
0.736310 0.225102 0.093750
0.822212 0.239884 0.101562
0.910109 0.254666 0.109375
1.000000 0.269448 0.117188
0.000000 0.125000 0.109375
0.050781 0.125000 0.101562
0.093750 0.125000 0.093750
0.117188 0.138797 0.085938
0.149506 0.152593 0.078125
0.179854 0.166390 0.070312
0.219700 0.180186 0.062500
0.271443 0.193983 0.054688
0.329027 0.207779 0.046875
0.405918 0.221576 0.054688
0.484802 0.235372 0.062500
0.565682 0.249169 0.070312
0.648556 0.262965 0.078125
0.733425 0.276762 0.085938
0.820289 0.290559 0.093750
0.909147 0.304355 0.101562
1.000000 0.318152 0.109375
0.062500 0.175781 0.093750
0.105469 0.175781 0.085938
0.140625 0.175781 0.078125
0.179688 0.175781 0.078125
0.212006 0.188592 0.070312
0.242354 0.201403 0.062500
0.278353 0.214215 0.054688
0.324231 0.227026 0.046875
0.375950 0.239837 0.039062
0.446975 0.252648 0.046875
0.519994 0.265459 0.054688
0.595009 0.278270 0.062500
0.672017 0.291081 0.070312
0.751021 0.303892 0.078125
0.832019 0.316703 0.085938
0.915012 0.329514 0.093750
1.000000 0.342325 0.101562
0.125000 0.218750 0.078125
0.160156 0.218750 0.070312
0.187500 0.218750 0.062500
0.218750 0.222834 0.062500
0.274506 0.226919 0.062500
0.304854 0.238744 0.054688
0.337006 0.250570 0.046875
0.377018 0.262396 0.039062
0.422872 0.274221 0.031250
0.488032 0.286047 0.039062
0.555186 0.297872 0.046875
0.624335 0.309698 0.054688
0.695479 0.321524 0.062500
0.768617 0.333349 0.070312
0.843750 0.345175 0.078125
0.920878 0.357000 0.085938
1.000000 0.368826 0.093750
0.187500 0.253906 0.062500
0.214844 0.253906 0.054688
0.234375 0.253906 0.046875
0.257812 0.262859 0.046875
0.309840 0.271811 0.046875
0.367354 0.280763 0.046875
0.395659 0.291603 0.039062
0.429806 0.302444 0.031250
0.469795 0.313284 0.023438
0.529089 0.324124 0.031250
0.590378 0.334964 0.039062
0.653662 0.345804 0.046875
0.718940 0.356644 0.054688
0.786213 0.367484 0.062500
0.855481 0.378324 0.070312
0.926743 0.389165 0.078125
1.000000 0.400005 0.085938
0.250000 0.281250 0.046875
0.269531 0.281250 0.039062
0.281250 0.281250 0.031250
0.296875 0.295070 0.031250
0.345175 0.308891 0.031250
0.399744 0.322711 0.031250
0.454312 0.336531 0.031250
0.482594 0.346386 0.023438
0.516717 0.356241 0.015625
0.570146 0.366095 0.023438
0.625570 0.375950 0.031250
0.682988 0.385805 0.039062
0.742401 0.395659 0.046875
0.803809 0.405514 0.054688
0.867211 0.415369 0.062500
0.932608 0.425223 0.070312
1.000000 0.435078 0.078125
0.312500 0.300781 0.031250
0.324219 0.300781 0.023438
0.328125 0.300781 0.015625
0.335938 0.319470 0.015625
0.380509 0.338158 0.015625
0.432133 0.356846 0.015625
0.483758 0.375534 0.015625
0.535382 0.394223 0.015625
0.563640 0.403092 0.007812
0.611203 0.411961 0.015625
0.660762 0.420830 0.023438
0.712315 0.429699 0.031250
0.765862 0.438569 0.039062
0.821405 0.447438 0.046875
0.878942 0.456307 0.054688
0.938474 0.465176 0.062500
1.000000 0.474045 0.070312
0.375000 0.312500 0.015625
0.378906 0.312500 0.007812
0.375000 0.312500 0.000000
0.375000 0.336056 0.000000
0.415843 0.359612 0.000000
0.464523 0.383169 0.000000
0.513203 0.406725 0.000000
0.561883 0.430281 0.000000
0.610562 0.453837 0.000000
0.652261 0.461721 0.007812
0.695954 0.469605 0.015625
0.741641 0.477489 0.023438
0.789324 0.485372 0.031250
0.839001 0.493256 0.039062
0.890673 0.501140 0.046875
0.944339 0.509024 0.054688
1.000000 0.516907 0.062500
0.437500 0.332696 0.015625
0.441406 0.332696 0.007812
0.437500 0.332696 0.000000
0.437500 0.358793 0.000000
0.474259 0.384890 0.000000
0.518071 0.410987 0.000000
0.561883 0.437084 0.000000
0.605694 0.463182 0.000000
0.649506 0.489279 0.000000
0.693318 0.515376 0.000000
0.731146 0.522274 0.007812
0.770968 0.529172 0.015625
0.812785 0.536070 0.023438
0.856597 0.542969 0.031250
0.902403 0.549867 0.039062
0.950204 0.556765 0.046875
1.000000 0.563664 0.054688
0.500000 0.399886 0.015625
0.503906 0.399886 0.007812
0.500000 0.399886 0.000000
0.500000 0.422255 0.000000
0.532675 0.444624 0.000000
0.571619 0.466993 0.000000
0.610562 0.489362 0.000000
0.649506 0.511731 0.000000
0.688450 0.534100 0.000000
0.727394 0.556468 0.000000
0.766337 0.578837 0.000000
0.800294 0.584750 0.007812
0.836246 0.590663 0.015625
0.874193 0.596576 0.023438
0.914134 0.602489 0.031250
0.956070 0.608401 0.039062
1.000000 0.614314 0.046875
0.562500 0.476456 0.015625
0.566406 0.476456 0.007812
0.562500 0.476456 0.000000
0.562500 0.495096 0.000000
0.591090 0.513737 0.000000
0.625166 0.532378 0.000000
0.659242 0.551019 0.000000
0.693318 0.569659 0.000000
0.727394 0.588300 0.000000
0.761469 0.606941 0.000000
0.795545 0.625582 0.000000
0.829621 0.644223 0.000000
0.859707 0.649150 0.007812
0.891789 0.654077 0.015625
0.925864 0.659005 0.023438
0.961935 0.663932 0.031250
1.000000 0.668859 0.039062
0.625000 0.562405 0.015625
0.628906 0.562405 0.007812
0.625000 0.562405 0.000000
0.625000 0.577318 0.000000
0.649506 0.592230 0.000000
0.678714 0.607143 0.000000
0.707922 0.622055 0.000000
0.737130 0.636968 0.000000
0.766337 0.651881 0.000000
0.795545 0.666793 0.000000
0.824753 0.681706 0.000000
0.853961 0.696619 0.000000
0.883169 0.711531 0.000000
0.909384 0.715473 0.007812
0.937595 0.719415 0.015625
0.967800 0.723357 0.023438
1.000000 0.727299 0.031250
0.687500 0.657734 0.015625
0.691406 0.657734 0.007812
0.687500 0.657734 0.000000
0.687500 0.668919 0.000000
0.707922 0.680103 0.000000
0.732262 0.691288 0.000000
0.756601 0.702472 0.000000
0.780941 0.713656 0.000000
0.805281 0.724841 0.000000
0.829621 0.736025 0.000000
0.853961 0.747210 0.000000
0.878301 0.758394 0.000000
0.902641 0.769579 0.000000
0.926980 0.780763 0.000000
0.949326 0.783720 0.007812
0.973665 0.786676 0.015625
1.000000 0.789632 0.023438
0.750000 0.762443 0.015625
0.753906 0.762443 0.007812
0.750000 0.762443 0.000000
0.750000 0.769899 0.000000
0.766337 0.777356 0.000000
0.785809 0.784812 0.000000
0.805281 0.792268 0.000000
0.824753 0.799725 0.000000
0.844225 0.807181 0.000000
0.863697 0.814637 0.000000
0.883169 0.822093 0.000000
0.902641 0.829550 0.000000
0.922112 0.837006 0.000000
0.941584 0.844462 0.000000
0.961056 0.851919 0.000000
0.979531 0.853890 0.007812
1.000000 0.855861 0.015625
0.812500 0.876532 0.015625
0.816406 0.876532 0.007812
0.812500 0.876532 0.000000
0.812500 0.880260 0.000000
0.824753 0.883988 0.000000
0.839357 0.887716 0.000000
0.853961 0.891444 0.000000
0.868565 0.895172 0.000000
0.883169 0.898901 0.000000
0.897773 0.902629 0.000000
0.912377 0.906357 0.000000
0.926980 0.910085 0.000000
0.941584 0.913813 0.000000
0.956188 0.917541 0.000000
0.970792 0.921269 0.000000
0.985396 0.924998 0.000000
1.000000 0.925983 0.007812
0.875000 1.000000 0.015625
0.878906 1.000000 0.007812
0.875000 1.000000 0.000000
0.875000 1.000000 0.000000
0.883169 1.000000 0.000000
0.892905 1.000000 0.000000
0.902641 1.000000 0.000000
0.912377 1.000000 0.000000
0.922112 1.000000 0.000000
0.931848 1.000000 0.000000
0.941584 1.000000 0.000000
0.951320 1.000000 0.000000
0.961056 1.000000 0.000000
0.970792 1.000000 0.000000
0.980528 1.000000 0.000000
0.990264 1.000000 0.000000
1.000000 1.000000 0.000000
0.000000 0.000000 0.152344
0.050781 0.000000 0.152344
0.101562 0.000000 0.152344
0.152344 0.000000 0.152344
0.188212 0.015767 0.140625
0.220543 0.031535 0.128906
0.258525 0.047302 0.117188
0.306385 0.063070 0.105469
0.360087 0.078837 0.093750
0.433095 0.094605 0.105469
0.508097 0.110372 0.117188
0.585095 0.126140 0.128906
0.664086 0.141907 0.140625
0.745073 0.157675 0.152344
0.828054 0.173442 0.164062
