graphics/entity/agricultural-camp/agricultural-camp-lut.cube
#Created by: Affinity Photo (Serif Europe Ltd.)
TITLE "agricultural-camp-lut"
#LUT size
LUT_3D_SIZE 5
#data domain
DOMAIN_MIN 0.0 0.0 0.0
DOMAIN_MAX 1.0 1.0 1.0
#LUT data points
0.000000 0.000000 0.000000
0.141337 0.063070 0.000000
0.313070 0.126140 0.000000
0.640577 0.189210 0.000000
1.000000 0.252280 0.000000
0.250000 0.187500 0.000000
0.391337 0.203837 0.000000
0.500760 0.251140 0.000000
0.734423 0.298442 0.000000
1.000000 0.345745 0.000000
0.500000 0.250000 0.000000
0.532675 0.344225 0.000000
0.688450 0.438450 0.000000
0.828267 0.469985 0.000000
1.000000 0.501520 0.000000
0.750000 0.524886 0.000000
0.766337 0.584536 0.000000
0.844225 0.644187 0.000000
0.922112 0.703837 0.000000
1.000000 0.719605 0.000000
1.000000 1.000000 0.000000
1.000000 1.000000 0.000000
1.000000 1.000000 0.000000
1.000000 1.000000 0.000000
1.000000 1.000000 0.000000
0.000000 0.000000 0.203837
0.203837 0.000000 0.203837
0.375760 0.063070 0.157675
0.671923 0.126140 0.203837
1.000000 0.189210 0.250000
0.000000 0.250000 0.203837
0.157675 0.250000 0.157675
0.344985 0.297302 0.111512
0.656535 0.344605 0.157675
1.000000 0.391907 0.203837
0.250000 0.375000 0.095175
0.299012 0.375000 0.049012
0.532675 0.469225 0.049012
0.750380 0.500760 0.095175
1.000000 0.532295 0.141337
0.500000 0.599924 0.078837
0.532675 0.599924 0.032675
0.688450 0.659574 0.032675
0.844225 0.719225 0.032675
1.000000 0.734992 0.078837
0.750000 1.000000 0.062500
0.766337 1.000000 0.016337
0.844225 1.000000 0.016337
0.922112 1.000000 0.016337
1.000000 1.000000 0.016337
0.000000 0.000000 0.438450
0.157675 0.000000 0.438450
0.438450 0.000000 0.438450
0.703267 0.063070 0.469225
1.000000 0.126140 0.500000
0.000000 0.250000 0.438450
0.111512 0.250000 0.407675
0.407675 0.250000 0.407675
0.687880 0.297302 0.438450
1.000000 0.344605 0.469225
0.000000 0.500000 0.438450
0.111512 0.500000 0.407675
0.376900 0.500000 0.376900
0.672492 0.531535 0.407675
1.000000 0.563070 0.438450
0.250000 0.674962 0.344225
0.345175 0.674962 0.313450
0.532675 0.674962 0.282675
0.766337 0.734612 0.282675
1.000000 0.750380 0.313450
0.500000 1.000000 0.250000
0.578837 1.000000 0.219225
0.688450 1.000000 0.188450
0.844225 1.000000 0.188450
1.000000 1.000000 0.188450
0.000000 0.000000 0.734612
0.203837 0.000000 0.734612
0.469225 0.000000 0.734612
0.734612 0.000000 0.734612
1.000000 0.063070 0.750000
0.000000 0.250000 0.734612
0.157675 0.250000 0.719225
0.438450 0.250000 0.719225
0.719225 0.250000 0.719225
1.000000 0.297302 0.734612
0.000000 0.500000 0.734612
0.157675 0.500000 0.719225
0.407675 0.500000 0.703837
0.703837 0.500000 0.703837
1.000000 0.531535 0.719225
0.000000 0.750000 0.734612
0.157675 0.750000 0.719225
0.407675 0.750000 0.703837
0.687690 0.561930 0.531155
1.000000 0.577698 0.546543
0.250000 1.000000 0.674962
0.391337 1.000000 0.659575
0.563450 1.000000 0.644187
0.765577 1.000000 0.471505
1.000000 1.000000 0.484043
0.000000 0.000000 1.000000
0.250000 0.000000 1.000000
0.500000 0.000000 1.000000
0.750000 0.000000 1.000000
1.000000 0.000000 1.000000
0.000000 0.250000 1.000000
0.203837 0.250000 1.000000
0.469225 0.250000 1.000000
0.734612 0.250000 1.000000
1.000000 0.250000 1.000000
0.000000 0.500000 1.000000
0.203837 0.500000 1.000000
0.438450 0.500000 1.000000
0.719225 0.500000 1.000000
1.000000 0.500000 1.000000
0.000000 0.750000 1.000000
0.203837 0.750000 1.000000
0.438450 0.750000 1.000000
0.703077 0.561930 1.000000
1.000000 0.561930 1.000000
0.000000 1.000000 1.000000
0.203837 1.000000 1.000000
0.438450 1.000000 1.000000
0.703077 1.000000 1.000000
1.000000 1.000000 1.000000
