graphics/entity/agricultural-camp/agricultural-camp-lut.cube
#Created by: Affinity Photo (Serif Europe Ltd.)
TITLE "agricultural-camp-lut"
#LUT size
LUT_3D_SIZE 9
#data domain
DOMAIN_MIN 0.0 0.0 0.0
DOMAIN_MAX 1.0 1.0 1.0
#LUT data points
0.000000 0.000000 0.000000
0.093750 0.031535 0.000000
0.141337 0.063070 0.000000
0.199753 0.094605 0.000000
0.313070 0.126140 0.000000
0.472834 0.157675 0.000000
0.640577 0.189210 0.000000
0.816299 0.220745 0.000000
1.000000 0.252280 0.000000
0.125000 0.109375 0.000000
0.218750 0.109375 0.000000
0.266337 0.136968 0.000000
0.317059 0.164561 0.000000
0.406915 0.192154 0.000000
0.543218 0.219747 0.000000
0.687500 0.247340 0.000000
0.839761 0.274934 0.000000
1.000000 0.302527 0.000000
0.250000 0.187500 0.000000
0.312500 0.195669 0.000000
0.391337 0.203837 0.000000
0.434366 0.227489 0.000000
0.500760 0.251140 0.000000
0.613602 0.274791 0.000000
0.734423 0.298442 0.000000
0.863222 0.322093 0.000000
1.000000 0.345745 0.000000
0.375000 0.234375 0.000000
0.406250 0.262016 0.000000
0.462006 0.289656 0.000000
0.551672 0.317297 0.000000
0.594605 0.337006 0.000000
0.683986 0.356715 0.000000
0.781345 0.376425 0.000000
0.886683 0.396134 0.000000
1.000000 0.415843 0.000000
0.500000 0.250000 0.000000
0.500000 0.297112 0.000000
0.532675 0.344225 0.000000
0.610562 0.391337 0.000000
0.688450 0.438450 0.000000
0.754369 0.454217 0.000000
0.828267 0.469985 0.000000
0.910144 0.485752 0.000000
1.000000 0.501520 0.000000
0.625000 0.343608 0.000000
0.625000 0.388345 0.000000
0.649506 0.433083 0.000000
0.707922 0.477821 0.000000
0.766337 0.522559 0.000000
0.824753 0.567297 0.000000
0.875190 0.579122 0.000000
0.933606 0.590948 0.000000
1.000000 0.602774 0.000000
0.750000 0.524886 0.000000
0.750000 0.554711 0.000000
0.766337 0.584536 0.000000
0.805281 0.614362 0.000000
0.844225 0.644187 0.000000
0.883169 0.674012 0.000000
0.922112 0.703837 0.000000
0.957067 0.711721 0.000000
1.000000 0.719605 0.000000
0.875000 0.743684 0.000000
0.875000 0.758596 0.000000
0.883169 0.773509 0.000000
0.902641 0.788421 0.000000
0.922112 0.803334 0.000000
0.941584 0.818247 0.000000
0.961056 0.833159 0.000000
0.980528 0.848072 0.000000
1.000000 0.852014 0.000000
1.000000 1.000000 0.000000
1.000000 1.000000 0.000000
1.000000 1.000000 0.000000
1.000000 1.000000 0.000000
1.000000 1.000000 0.000000
1.000000 1.000000 0.000000
1.000000 1.000000 0.000000
1.000000 1.000000 0.000000
1.000000 1.000000 0.000000
0.000000 0.000000 0.109375
0.109375 0.000000 0.109375
0.172587 0.031535 0.093750
0.238934 0.063070 0.078125
0.344415 0.094605 0.062500
0.496343 0.126140 0.078125
0.656250 0.157675 0.093750
0.824136 0.189210 0.109375
1.000000 0.220745 0.125000
0.000000 0.125000 0.109375
0.093750 0.125000 0.093750
0.149506 0.152593 0.078125
0.219700 0.180186 0.062500
0.329027 0.207779 0.046875
0.484802 0.235372 0.062500
0.648556 0.262965 0.078125
0.820289 0.290559 0.093750
1.000000 0.318152 0.109375
0.125000 0.218750 0.078125
0.187500 0.218750 0.062500
0.274506 0.226919 0.062500
0.337006 0.250570 0.046875
0.422872 0.274221 0.031250
0.555186 0.297872 0.046875
0.695479 0.321524 0.062500
0.843750 0.345175 0.078125
1.000000 0.368826 0.093750
0.250000 0.281250 0.046875
0.281250 0.281250 0.031250
0.345175 0.308891 0.031250
0.454312 0.336531 0.031250
0.516717 0.356241 0.015625
0.625570 0.375950 0.031250
0.742401 0.395659 0.046875
0.867211 0.415369 0.062500
1.000000 0.435078 0.078125
0.375000 0.312500 0.015625
0.375000 0.312500 0.000000
0.415843 0.359612 0.000000
0.513203 0.406725 0.000000
0.610562 0.453837 0.000000
0.695954 0.469605 0.015625
0.789324 0.485372 0.031250
0.890673 0.501140 0.046875
1.000000 0.516907 0.062500
0.500000 0.399886 0.015625
0.500000 0.399886 0.000000
0.532675 0.444624 0.000000
0.610562 0.489362 0.000000
0.688450 0.534100 0.000000
0.766337 0.578837 0.000000
0.836246 0.590663 0.015625
0.914134 0.602489 0.031250
1.000000 0.614314 0.046875
0.625000 0.562405 0.015625
0.625000 0.562405 0.000000
0.649506 0.592230 0.000000
0.707922 0.622055 0.000000
0.766337 0.651881 0.000000
0.824753 0.681706 0.000000
0.883169 0.711531 0.000000
0.937595 0.719415 0.015625
1.000000 0.727299 0.031250
0.750000 0.762443 0.015625
0.750000 0.762443 0.000000
0.766337 0.777356 0.000000
0.805281 0.792268 0.000000
0.844225 0.807181 0.000000
0.883169 0.822093 0.000000
0.922112 0.837006 0.000000
0.961056 0.851919 0.000000
1.000000 0.855861 0.015625
0.875000 1.000000 0.015625
0.875000 1.000000 0.000000
0.883169 1.000000 0.000000
0.902641 1.000000 0.000000
0.922112 1.000000 0.000000
0.941584 1.000000 0.000000
0.961056 1.000000 0.000000
0.980528 1.000000 0.000000
1.000000 1.000000 0.000000
0.000000 0.000000 0.203837
0.093750 0.000000 0.203837
0.203837 0.000000 0.203837
0.278116 0.031535 0.180756
0.375760 0.063070 0.157675
0.519852 0.094605 0.180756
0.671923 0.126140 0.203837
0.831972 0.157675 0.226919
1.000000 0.189210 0.250000
0.000000 0.125000 0.203837
0.078125 0.125000 0.180756
0.180756 0.125000 0.180756
0.258881 0.152593 0.157675
0.360372 0.180186 0.134593
0.508311 0.207779 0.157675
0.664229 0.235372 0.180756
0.828125 0.262965 0.203837
1.000000 0.290558 0.226919
0.000000 0.250000 0.203837
0.078125 0.250000 0.180756
0.157675 0.250000 0.157675
0.239647 0.273651 0.134593
0.344985 0.297302 0.111512
0.496771 0.320954 0.134593
0.656535 0.344605 0.157675
0.824278 0.368256 0.180756
1.000000 0.391907 0.203837
0.125000 0.328125 0.149506
0.171875 0.328125 0.126425
0.228343 0.328125 0.103343
0.356953 0.355766 0.103343
0.438830 0.375475 0.080262
0.567154 0.395184 0.103343
0.703457 0.414894 0.126425
0.847739 0.434603 0.149506
1.000000 0.454312 0.172587
0.250000 0.375000 0.095175
0.265625 0.375000 0.072093
0.299012 0.375000 0.049012
0.415843 0.422112 0.049012
0.532675 0.469225 0.049012
0.637538 0.484992 0.072093
0.750380 0.500760 0.095175
0.871201 0.516527 0.118256
1.000000 0.532295 0.141337
0.375000 0.456165 0.087006
0.390625 0.456164 0.063925
0.415843 0.456164 0.040843
0.513203 0.500902 0.040843
0.610562 0.545640 0.040843
0.707922 0.590378 0.040843
0.797302 0.602204 0.063925
0.894662 0.614029 0.087006
1.000000 0.625855 0.110087
0.500000 0.599924 0.078837
0.515625 0.599924 0.055756
0.532675 0.599924 0.032675
0.610562 0.629749 0.032675
0.688450 0.659574 0.032675
0.766337 0.689400 0.032675
0.844225 0.719225 0.032675
0.918123 0.727109 0.055756
1.000000 0.734992 0.078837
0.625000 0.781203 0.070669
0.640625 0.781202 0.047587
0.649506 0.781202 0.024506
0.707922 0.796115 0.024506
0.766337 0.811028 0.024506
0.824753 0.825940 0.024506
0.883169 0.840853 0.024506
0.941584 0.855766 0.024506
1.000000 0.859707 0.047587
0.750000 1.000000 0.062500
0.765625 1.000000 0.039419
0.766337 1.000000 0.016337
0.805281 1.000000 0.016337
0.844225 1.000000 0.016337
0.883169 1.000000 0.016337
0.922112 1.000000 0.016337
0.961056 1.000000 0.016337
1.000000 1.000000 0.016337
0.000000 0.000000 0.317297
0.078125 0.000000 0.317297
0.180756 0.000000 0.317297
0.317297 0.000000 0.317297
0.407105 0.031535 0.298062
0.543361 0.063070 0.317297
0.687595 0.094605 0.336531
0.839808 0.126140 0.355766
1.000000 0.157675 0.375000
0.000000 0.125000 0.317297
0.062500 0.125000 0.298062
0.157675 0.125000 0.298062
0.298062 0.125000 0.298062
0.391717 0.152593 0.278828
0.531820 0.180186 0.298062
0.679901 0.207779 0.317297
0.835961 0.235372 0.336531
1.000000 0.262965 0.355766
0.000000 0.250000 0.317297
0.062500 0.250000 0.298062
0.134593 0.250000 0.278828
0.278828 0.250000 0.278828
0.376330 0.273651 0.259593
0.520279 0.297302 0.278828
0.672207 0.320954 0.298062
0.832114 0.344605 0.317297
1.000000 0.368256 0.336531
0.000000 0.375000 0.317297
0.062500 0.375000 0.298062
0.134593 0.375000 0.278828
0.259593 0.375000 0.259593
0.360942 0.394709 0.240359
0.508739 0.414419 0.259593
0.664514 0.434128 0.278828
0.828267 0.453837 0.298062
1.000000 0.473547 0.317297
0.125000 0.437500 0.251187
0.156250 0.437500 0.231953
0.205262 0.437500 0.212718
0.318484 0.437500 0.193484
0.454787 0.484612 0.193484
0.579122 0.500380 0.212718
0.711436 0.516147 0.231953
0.851729 0.531915 0.251187
1.000000 0.547682 0.270422
0.250000 0.512443 0.223547
0.281250 0.512443 0.204312
0.322093 0.512443 0.185078
0.415843 0.512443 0.165843
0.532675 0.557181 0.165843
0.649506 0.601919 0.165843
0.758359 0.613744 0.185078
0.875190 0.625570 0.204312
1.000000 0.637396 0.223547
0.375000 0.637443 0.195906
0.406250 0.637443 0.176672
0.438925 0.637443 0.157437
0.513203 0.637443 0.138203
0.610562 0.667268 0.138203
0.707922 0.697093 0.138203
0.805281 0.726919 0.138203
0.898651 0.734802 0.157437
1.000000 0.742686 0.176672
0.500000 0.799962 0.168266
0.531250 0.799962 0.149031
0.555756 0.799962 0.129797
0.610562 0.799962 0.110562
0.688450 0.814875 0.110562
0.766337 0.829787 0.110562
0.844225 0.844700 0.110562
0.922112 0.859612 0.110562
1.000000 0.863554 0.129797
0.625000 1.000000 0.140625
0.656250 1.000000 0.121391
0.672588 1.000000 0.102156
0.707922 1.000000 0.082922
0.766337 1.000000 0.082922
0.824753 1.000000 0.082922
0.883169 1.000000 0.082922
0.941584 1.000000 0.082922
1.000000 1.000000 0.082922
0.000000 0.000000 0.438450
0.062500 0.000000 0.438450
0.157675 0.000000 0.438450
0.298062 0.000000 0.438450
0.438450 0.000000 0.438450
0.566869 0.031535 0.453837
0.703267 0.063070 0.469225
0.847644 0.094605 0.484612
1.000000 0.126140 0.500000
0.000000 0.125000 0.438450
0.046875 0.125000 0.423062
0.134593 0.125000 0.423062
0.278828 0.125000 0.423062
0.423062 0.125000 0.423062
0.555329 0.152593 0.438450
0.695574 0.180186 0.453837
0.843798 0.207779 0.469225
1.000000 0.235372 0.484612
0.000000 0.250000 0.438450
0.046875 0.250000 0.423062
0.111512 0.250000 0.407675
0.259593 0.250000 0.407675
0.407675 0.250000 0.407675
0.543788 0.273651 0.423062
0.687880 0.297302 0.438450
0.839951 0.320954 0.453837
1.000000 0.344605 0.469225
0.000000 0.375000 0.438450
0.046875 0.375000 0.423062
0.111512 0.375000 0.407675
0.240359 0.375000 0.392287
0.392287 0.375000 0.392287
0.532247 0.394709 0.407675
0.680186 0.414419 0.423062
0.836104 0.434128 0.438450
1.000000 0.453837 0.453837
0.000000 0.500000 0.438450
0.046875 0.500000 0.423062
0.111512 0.500000 0.407675
0.240359 0.500000 0.392287
0.376900 0.500000 0.376900
0.520707 0.515767 0.392287
0.672492 0.531535 0.407675
0.832257 0.547302 0.423062
1.000000 0.563070 0.438450
0.125000 0.568722 0.391337
0.171875 0.568722 0.375950
0.228343 0.568722 0.360562
0.337718 0.568722 0.345175
0.454787 0.568722 0.329787
0.591090 0.613459 0.329787
0.719415 0.625285 0.345175
0.855718 0.637111 0.360562
1.000000 0.648936 0.375950
0.250000 0.674962 0.344225
0.296875 0.674962 0.328837
0.345175 0.674962 0.313450
0.435078 0.674962 0.298062
0.532675 0.674962 0.282675
0.649506 0.704787 0.282675
0.766337 0.734612 0.282675
0.879179 0.742496 0.298062
1.000000 0.750380 0.313450
0.375000 0.818721 0.297112
0.421875 0.818722 0.281725
0.462006 0.818722 0.266337
0.532437 0.818722 0.250950
0.610562 0.818722 0.235562
0.707922 0.833634 0.235562
0.805281 0.848547 0.235562
0.902641 0.863459 0.235562
1.000000 0.867401 0.250950
0.500000 1.000000 0.250000
0.546875 1.000000 0.234613
0.578837 1.000000 0.219225
0.629797 1.000000 0.203837
0.688450 1.000000 0.188450
0.766337 1.000000 0.188450
0.844225 1.000000 0.188450
0.922112 1.000000 0.188450
1.000000 1.000000 0.188450
0.000000 0.000000 0.590378
0.078125 0.000000 0.590378
0.180756 0.000000 0.590378
0.317297 0.000000 0.590378
0.453837 0.000000 0.590378
0.590378 0.000000 0.590378
0.718940 0.031535 0.601919
0.855481 0.063070 0.613459
1.000000 0.094605 0.625000
0.000000 0.125000 0.590378
0.062500 0.125000 0.578837
0.157675 0.125000 0.578837
0.298062 0.125000 0.578837
0.438450 0.125000 0.578837
0.578837 0.125000 0.578837
0.711246 0.152593 0.590378
0.851634 0.180186 0.601919
1.000000 0.207779 0.613459
0.000000 0.250000 0.590378
0.062500 0.250000 0.578837
0.134593 0.250000 0.567297
0.278828 0.250000 0.567297
0.423062 0.250000 0.567297
0.567297 0.250000 0.567297
0.703552 0.273651 0.578837
0.847787 0.297302 0.590378
1.000000 0.320954 0.601919
0.000000 0.375000 0.590378
0.062500 0.375000 0.578837
0.134593 0.375000 0.567297
0.259593 0.375000 0.555756
0.407675 0.375000 0.555756
0.555756 0.375000 0.555756
0.695859 0.394709 0.567297
0.843940 0.414419 0.578837
1.000000 0.434128 0.590378
0.000000 0.500000 0.590378
0.062500 0.500000 0.578837
0.134593 0.500000 0.567297
0.259593 0.500000 0.555756
0.392287 0.500000 0.544215
0.544215 0.500000 0.544215
0.688165 0.515767 0.555756
0.840093 0.531535 0.567297
1.000000 0.547302 0.578837
0.000000 0.625000 0.590378
0.062500 0.625000 0.578837
0.134593 0.625000 0.567297
0.259593 0.625000 0.555756
0.392287 0.625000 0.544215
0.532105 0.483948 0.414704
0.680091 0.495773 0.426244
0.836056 0.507599 0.437785
1.000000 0.519424 0.449326
0.125000 0.712481 0.545640
0.187500 0.712481 0.534100
0.251425 0.712481 0.522559
0.356953 0.712481 0.511018
0.470175 0.712481 0.499478
0.590521 0.618446 0.369966
0.727014 0.648271 0.379369
0.859517 0.656155 0.390910
1.000000 0.664039 0.402451
0.250000 0.837481 0.500902
0.312500 0.837481 0.489362
0.368256 0.837481 0.477821
0.454312 0.837481 0.466280
0.548062 0.837481 0.454740
0.648936 0.790464 0.325228
0.765957 0.805376 0.334631
0.882979 0.820289 0.344035
1.000000 0.824231 0.355576
0.375000 1.000000 0.456164
0.437500 1.000000 0.444624
0.485087 1.000000 0.433083
0.551672 1.000000 0.421543
0.625950 1.000000 0.410002
0.707352 1.000000 0.280490
0.804901 1.000000 0.289894
0.902451 1.000000 0.299297
1.000000 1.000000 0.308701
0.000000 0.000000 0.734612
0.093750 0.000000 0.734612
0.203837 0.000000 0.734612
0.336531 0.000000 0.734612
0.469225 0.000000 0.734612
0.601919 0.000000 0.734612
0.734612 0.000000 0.734612
0.863317 0.031535 0.742306
1.000000 0.063070 0.750000
0.000000 0.125000 0.734612
0.078125 0.125000 0.726919
0.180756 0.125000 0.726919
0.317297 0.125000 0.726919
0.453837 0.125000 0.726919
0.590378 0.125000 0.726919
0.726919 0.125000 0.726919
0.859470 0.152593 0.734612
1.000000 0.180186 0.742306
0.000000 0.250000 0.734612
0.078125 0.250000 0.726919
0.157675 0.250000 0.719225
0.298062 0.250000 0.719225
0.438450 0.250000 0.719225
0.578837 0.250000 0.719225
0.719225 0.250000 0.719225
0.855623 0.273651 0.726919
1.000000 0.297302 0.734612
0.000000 0.375000 0.734612
0.078125 0.375000 0.726919
0.157675 0.375000 0.719225
0.278828 0.375000 0.711531
0.423062 0.375000 0.711531
0.567297 0.375000 0.711531
0.711531 0.375000 0.711531
0.851776 0.394709 0.719225
1.000000 0.414419 0.726919
0.000000 0.500000 0.734612
0.078125 0.500000 0.726919
0.157675 0.500000 0.719225
0.278828 0.500000 0.711531
0.407675 0.500000 0.703837
0.555756 0.500000 0.703837
0.703837 0.500000 0.703837
0.847929 0.515767 0.711531
1.000000 0.531535 0.719225
0.000000 0.625000 0.734612
0.078125 0.625000 0.726919
0.157675 0.625000 0.719225
0.278828 0.625000 0.711531
0.407675 0.625000 0.703837
0.543646 0.483948 0.617496
0.695764 0.483948 0.617496
0.843892 0.495773 0.625190
1.000000 0.507599 0.632884
0.000000 0.750000 0.734612
0.078125 0.750000 0.726919
0.157675 0.750000 0.719225
0.278828 0.750000 0.711531
0.407675 0.750000 0.703837
0.543646 0.655965 0.617496
0.687690 0.561930 0.531155
0.839856 0.569814 0.538849
1.000000 0.577698 0.546543
0.125000 0.856241 0.704787
0.203125 0.856241 0.697093
0.274506 0.856241 0.689400
0.376187 0.856241 0.681706
0.485562 0.856241 0.674012
0.602061 0.809223 0.587671
0.726634 0.762206 0.501330
0.863317 0.777118 0.507599
1.000000 0.781060 0.515293
0.250000 1.000000 0.674962
0.328125 1.000000 0.667268
0.391337 1.000000 0.659575
0.473547 1.000000 0.651881
0.563450 1.000000 0.644187
0.660477 1.000000 0.557846
0.765577 1.000000 0.471505
0.882789 1.000000 0.477774
1.000000 1.000000 0.484043
0.000000 0.000000 0.871153
0.109375 0.000000 0.871153
0.226919 0.000000 0.871153
0.355766 0.000000 0.871153
0.484612 0.000000 0.871153
0.613459 0.000000 0.871153
0.742306 0.000000 0.871153
0.871153 0.000000 0.871153
1.000000 0.031535 0.875000
0.000000 0.125000 0.871153
0.093750 0.125000 0.867306
0.203837 0.125000 0.867306
0.336531 0.125000 0.867306
0.469225 0.125000 0.867306
0.601919 0.125000 0.867306
0.734612 0.125000 0.867306
0.867306 0.125000 0.867306
1.000000 0.152593 0.871153
0.000000 0.250000 0.871153
0.093750 0.250000 0.867306
0.180756 0.250000 0.863459
0.317297 0.250000 0.863459
0.453837 0.250000 0.863459
0.590378 0.250000 0.863459
0.726919 0.250000 0.863459
0.863459 0.250000 0.863459
1.000000 0.273651 0.867306
0.000000 0.375000 0.871153
0.093750 0.375000 0.867306
0.180756 0.375000 0.863459
0.298062 0.375000 0.859612
0.438450 0.375000 0.859612
0.578837 0.375000 0.859612
0.719225 0.375000 0.859612
0.859612 0.375000 0.859612
1.000000 0.394709 0.863459
0.000000 0.500000 0.871153
0.093750 0.500000 0.867306
0.180756 0.500000 0.863459
0.298062 0.500000 0.859612
0.423062 0.500000 0.855766
0.567297 0.500000 0.855766
0.711531 0.500000 0.855766
0.855766 0.500000 0.855766
1.000000 0.515767 0.859612
0.000000 0.625000 0.871153
0.093750 0.625000 0.867306
0.180756 0.625000 0.863459
0.298062 0.625000 0.859612
0.423062 0.625000 0.855766
0.555186 0.483948 0.812595
0.703457 0.483948 0.812595
0.851729 0.483948 0.812595
1.000000 0.495773 0.816442
0.000000 0.750000 0.871153
0.093750 0.750000 0.867306
0.180756 0.750000 0.863459
0.298062 0.750000 0.859612
0.423062 0.750000 0.855766
0.555186 0.655965 0.812595
0.695384 0.561930 0.769424
0.847692 0.561930 0.769424
1.000000 0.569814 0.773271
0.000000 0.875000 0.871153
0.093750 0.875000 0.867306
0.180756 0.875000 0.863459
0.298062 0.875000 0.859612
0.423062 0.875000 0.855766
0.555186 0.827983 0.812595
0.695384 0.780965 0.769424
0.843655 0.733948 0.726254
1.000000 0.737889 0.730101
0.125000 1.000000 0.856241
0.218750 1.000000 0.852394
0.297587 1.000000 0.848547
0.395422 1.000000 0.844700
0.500950 1.000000 0.840853
0.613602 1.000000 0.797682
0.734327 1.000000 0.754512
0.863127 1.000000 0.711341
1.000000 1.000000 0.714476
0.000000 0.000000 1.000000
0.125000 0.000000 1.000000
0.250000 0.000000 1.000000
0.375000 0.000000 1.000000
0.500000 0.000000 1.000000
0.625000 0.000000 1.000000
0.750000 0.000000 1.000000
0.875000 0.000000 1.000000
1.000000 0.000000 1.000000
0.000000 0.125000 1.000000
0.109375 0.125000 1.000000
0.226919 0.125000 1.000000
0.355766 0.125000 1.000000
0.484612 0.125000 1.000000
0.613459 0.125000 1.000000
0.742306 0.125000 1.000000
0.871153 0.125000 1.000000
1.000000 0.125000 1.000000
0.000000 0.250000 1.000000
0.109375 0.250000 1.000000
0.203837 0.250000 1.000000
0.336531 0.250000 1.000000
0.469225 0.250000 1.000000
0.601919 0.250000 1.000000
0.734612 0.250000 1.000000
0.867306 0.250000 1.000000
1.000000 0.250000 1.000000
0.000000 0.375000 1.000000
0.109375 0.375000 1.000000
0.203837 0.375000 1.000000
0.317297 0.375000 1.000000
0.453837 0.375000 1.000000
0.590378 0.375000 1.000000
0.726919 0.375000 1.000000
0.863459 0.375000 1.000000
1.000000 0.375000 1.000000
0.000000 0.500000 1.000000
0.109375 0.500000 1.000000
0.203837 0.500000 1.000000
0.317297 0.500000 1.000000
0.438450 0.500000 1.000000
0.578837 0.500000 1.000000
0.719225 0.500000 1.000000
0.859612 0.500000 1.000000
1.000000 0.500000 1.000000
0.000000 0.625000 1.000000
0.109375 0.625000 1.000000
0.203837 0.625000 1.000000
0.317297 0.625000 1.000000
0.438450 0.625000 1.000000
0.566727 0.483948 1.000000
0.711151 0.483948 1.000000
0.855576 0.483948 1.000000
1.000000 0.483948 1.000000
0.000000 0.750000 1.000000
0.109375 0.750000 1.000000
0.203837 0.750000 1.000000
0.317297 0.750000 1.000000
0.438450 0.750000 1.000000
0.566727 0.655965 1.000000
0.703077 0.561930 1.000000
0.851539 0.561930 1.000000
1.000000 0.561930 1.000000
0.000000 0.875000 1.000000
0.109375 0.875000 1.000000
0.203837 0.875000 1.000000
0.317297 0.875000 1.000000
0.438450 0.875000 1.000000
0.566727 0.827983 1.000000
0.703077 0.780965 1.000000
0.847502 0.733948 1.000000
1.000000 0.733948 1.000000
0.000000 1.000000 1.000000
0.109375 1.000000 1.000000
0.203837 1.000000 1.000000
0.317297 1.000000 1.000000
0.438450 1.000000 1.000000
0.566727 1.000000 1.000000
0.703077 1.000000 1.000000
0.847502 1.000000 1.000000
1.000000 1.000000 1.000000
