graphics/icons/cupric-lut.cube
#Created by: Affinity Photo (Serif Europe Ltd.)
TITLE "cupric-lut"
#LUT size
LUT_3D_SIZE 9
#data domain
DOMAIN_MIN 0.0 0.0 0.0
DOMAIN_MAX 1.0 1.0 1.0
#LUT data points
0.000000 0.000000 0.000000
0.000000 0.063131 0.042511
0.000000 0.134222 0.094886
0.000000 0.215024 0.160271
0.000000 0.308402 0.236378
0.000000 0.418981 0.345109
0.000000 0.559019 0.491125
0.000000 0.702158 0.660153
0.000000 0.858171 0.857614
0.125599 0.000000 0.031375
0.030796 0.002102 0.033588
0.000000 0.068099 0.070212
0.000000 0.134951 0.124683
0.000000 0.220845 0.196021
0.000000 0.325862 0.307621
0.000000 0.450100 0.449961
0.000000 0.601959 0.599033
0.000000 0.751437 0.731992
0.202269 0.000000 0.065543
0.140621 0.000000 0.069670
0.044253 0.017065 0.066467
0.000000 0.094212 0.101913
0.000000 0.155515 0.158307
0.000000 0.262046 0.260907
0.000000 0.402237 0.390559
0.000000 0.540082 0.506935
0.000000 0.682518 0.614826
0.282231 0.000000 0.104964
0.225476 0.000000 0.110857
0.149315 0.000000 0.106337
0.054617 0.034524 0.098488
0.000000 0.120970 0.131136
0.000000 0.215087 0.215650
0.000000 0.358901 0.331264
0.000000 0.506553 0.434510
0.000000 0.644613 0.505306
0.374257 0.000000 0.152298
0.318132 0.000000 0.160868
0.236481 0.000000 0.151764
0.158373 0.000000 0.144677
0.063257 0.053680 0.129645
0.000000 0.174668 0.180066
0.000000 0.302869 0.275806
0.000000 0.467074 0.369030
0.000000 0.625208 0.424210
0.502699 0.000000 0.219922
0.431036 0.000000 0.259116
0.335784 0.000000 0.243523
0.249930 0.000000 0.230029
0.160201 0.038012 0.208269
0.068208 0.099932 0.183598
0.000000 0.252971 0.231322
0.000000 0.399466 0.308944
0.000000 0.588251 0.360059
0.654078 0.000000 0.355744
0.595644 0.000000 0.416142
0.458591 0.000000 0.388772
0.353691 0.006602 0.362407
0.245081 0.059384 0.317923
0.154199 0.110851 0.280050
0.069241 0.170167 0.244527
0.000000 0.336835 0.260212
0.000000 0.506773 0.305151
0.792559 0.000000 0.512561
0.749214 0.000000 0.601870
0.622435 0.000000 0.574161
0.462240 0.038110 0.510425
0.331204 0.094365 0.441097
0.229393 0.143523 0.384017
0.144681 0.191600 0.334758
0.067679 0.246850 0.288369
0.000000 0.428006 0.261203
0.911691 0.000000 0.683955
0.880666 0.000000 0.808260
0.761182 0.013456 0.773969
0.593272 0.080872 0.673686
0.416533 0.146529 0.571097
0.295621 0.197661 0.489585
0.205037 0.241121 0.423056
0.129794 0.283726 0.364890
0.062678 0.333171 0.309518
0.129225 0.072991 0.000000
0.000000 0.066182 0.019672
0.000000 0.140214 0.073495
0.000000 0.227079 0.140929
0.000000 0.327547 0.218986
0.000000 0.447770 0.303152
0.000000 0.594734 0.447882
0.000000 0.750217 0.629133
0.000000 0.925153 0.847785
0.124851 0.005812 0.000000
0.139146 0.073971 0.036994
0.150119 0.163247 0.092517
0.158076 0.246769 0.181683
0.159442 0.347183 0.266702
0.152818 0.483706 0.402891
0.141840 0.634791 0.571900
0.122539 0.800213 0.786674
0.047727 0.987359 0.987194
0.198837 0.000000 0.029309
0.236257 0.070538 0.079227
0.140532 0.066970 0.078715
0.138891 0.146462 0.138024
0.145188 0.243064 0.220767
0.145617 0.363134 0.362444
0.130984 0.516227 0.514160
0.110011 0.678897 0.665188
0.042643 0.838023 0.796687
0.276287 0.000000 0.065267
0.337999 0.067449 0.128692
0.248141 0.063786 0.130194
0.141950 0.059979 0.121706
0.120701 0.169968 0.173476
0.120047 0.309213 0.301079
0.107947 0.461936 0.430688
0.088536 0.610441 0.539424
0.034507 0.764097 0.618729
0.365163 0.000000 0.107519
0.451838 0.063952 0.187267
0.363039 0.060833 0.192571
0.250881 0.056517 0.178427
0.140150 0.070000 0.162298
0.096392 0.247940 0.241678
0.088894 0.415929 0.355892
0.072322 0.580557 0.440136
0.024150 0.752962 0.444645
0.490687 0.000000 0.159277
0.602993 0.060412 0.293947
0.502329 0.058259 0.333459
0.372003 0.054275 0.311611
0.248258 0.075852 0.280953
0.128005 0.141917 0.238298
0.072534 0.338656 0.288869
0.059656 0.534458 0.361493
0.019078 0.745933 0.342960
0.637212 0.000000 0.224771
0.748727 0.054174 0.450597
0.669653 0.053490 0.517463
0.513599 0.050619 0.487668
0.353218 0.103247 0.422068
0.221019 0.165644 0.356663
0.112706 0.228001 0.299618
0.050188 0.437386 0.299155
0.015921 0.678157 0.279416
0.780288 0.000000 0.360087
0.874920 0.046671 0.622886
0.814803 0.046268 0.726745
0.665588 0.063641 0.685869
0.454493 0.146872 0.571065
0.301657 0.211456 0.477895
0.187749 0.266951 0.400054
0.094649 0.323318 0.331258
0.014279 0.554622 0.239757
0.904573 0.000000 0.509921
1.000000 0.014145 0.859827
0.940477 0.043848 0.960359
0.750089 0.133035 0.831636
0.555741 0.209957 0.700526
0.344264 0.283621 0.566393
0.218478 0.337016 0.464101
0.131133 0.382172 0.381110
0.059343 0.432276 0.305361
0.237445 0.169249 0.000000
0.137102 0.157665 0.006038
0.000000 0.132861 0.043300
0.000000 0.215000 0.105165
0.000000 0.314166 0.176861
0.000000 0.431925 0.256985
0.000000 0.560685 0.340841
0.000000 0.708191 0.494495
0.000000 0.874548 0.697921
0.226631 0.090833 0.000000
0.261369 0.182414 0.039069
0.148900 0.169392 0.047555
0.158595 0.262032 0.136184
0.160580 0.360141 0.234185
0.153956 0.500333 0.331406
0.142746 0.661326 0.499525
0.120559 0.842924 0.727258
0.044496 1.000000 1.000000
0.199556 0.011947 0.000000
0.234091 0.077957 0.035195
0.264117 0.174642 0.088933
0.289018 0.281163 0.154931
0.300916 0.373181 0.245650
0.304089 0.486667 0.392835
0.301749 0.637914 0.565014
0.166118 0.912127 0.909634
0.221529 1.000000 1.000000
0.270663 0.000000 0.027388
0.328767 0.066127 0.074584
0.381625 0.174869 0.143875
0.266920 0.166866 0.141653
0.277544 0.261495 0.215688
0.289875 0.370048 0.357363
0.285320 0.512768 0.512236
0.140394 0.757105 0.707150
0.187097 0.847297 0.811925
0.356437 0.000000 0.065374
0.439207 0.062703 0.125708
0.506998 0.173089 0.207535
0.397328 0.167539 0.210287
0.269774 0.159077 0.197485
0.249279 0.295937 0.313014
0.234348 0.459970 0.434473
0.105877 0.685476 0.527169
0.145724 0.765563 0.624753
0.479801 0.000000 0.111031
0.587947 0.059110 0.186522
0.643058 0.171591 0.310499
0.539674 0.166892 0.348389
0.404418 0.161210 0.332428
0.264389 0.182942 0.301805
0.198422 0.401311 0.375843
0.079678 0.667272 0.395366
0.100829 0.752861 0.446508
0.626272 0.000000 0.165513
0.734531 0.053220 0.279341
0.769354 0.168239 0.458018
0.684853 0.165961 0.520060
0.546650 0.159917 0.510439
0.380059 0.213040 0.451512
0.229717 0.285460 0.378846
0.062249 0.585172 0.306949
0.072569 0.765050 0.325297
0.766425 0.000000 0.228152
0.866622 0.045922 0.425714
0.952544 0.083425 0.752482
0.863962 0.087157 0.867790
0.634321 0.186486 0.727276
0.384708 0.284353 0.578933
0.221532 0.359448 0.457761
0.105892 0.425004 0.355343
0.062894 0.678092 0.280479
0.896229 0.000000 0.358063
1.000000 0.013929 0.613551
1.000000 0.122629 0.894818
0.943390 0.150397 0.962298
0.748733 0.245427 0.832658
0.543731 0.342078 0.695930
0.339290 0.420865 0.563357
0.197053 0.489283 0.447015
0.105404 0.546936 0.347479
0.368014 0.282867 0.000000
0.257908 0.270967 0.004132
0.143396 0.238270 0.030019
0.000000 0.203565 0.071609
0.000000 0.301647 0.137975
0.000000 0.416802 0.213892
0.000000 0.544832 0.292101
0.000000 0.671964 0.379658
0.000000 0.829494 0.557082
0.364939 0.204929 0.000000
0.407532 0.305824 0.037907
0.272303 0.291937 0.043276
0.155701 0.259526 0.078118
0.158964 0.352773 0.170844
0.152926 0.479849 0.268957
0.142259 0.618602 0.364104
0.121914 0.788365 0.555305
0.046489 0.943126 0.806785
0.318905 0.103569 0.000000
0.389117 0.202601 0.036527
0.411199 0.296942 0.093681
0.286702 0.289249 0.097144
0.301286 0.388842 0.190897
0.305308 0.507156 0.292110
0.302130 0.650477 0.479384
0.171954 0.952177 0.830922
0.215725 1.000000 1.000000
0.275617 0.018778 0.000000
0.331039 0.082929 0.033135
0.377991 0.183270 0.088334
0.413891 0.289239 0.153519
0.428987 0.403754 0.214403
0.438155 0.511977 0.355767
0.384422 0.703976 0.644884
0.329503 0.918273 0.917476
0.360892 1.000000 1.000000
0.348099 0.000000 0.025493
0.426737 0.061440 0.069248
0.495964 0.171557 0.138216
0.537137 0.290593 0.210433
0.416487 0.281468 0.217807
0.418544 0.384548 0.337647
0.346899 0.552245 0.547032
0.268596 0.747995 0.704587
0.303391 0.856406 0.826199
0.469151 0.000000 0.065944
0.575621 0.058233 0.122019
0.634574 0.169024 0.200015
0.662483 0.289216 0.308752
0.552771 0.284047 0.338186
0.420428 0.275108 0.337251
0.273526 0.488123 0.448361
0.201358 0.672460 0.521904
0.228196 0.765833 0.625831
0.615616 0.000000 0.113923
0.722822 0.052569 0.182736
0.761838 0.166120 0.283709
0.821342 0.238338 0.522672
0.705925 0.235037 0.586477
0.520159 0.256959 0.555838
0.303559 0.358882 0.455590
0.153526 0.649717 0.403501
0.156384 0.753377 0.441888
0.757583 0.000000 0.169082
0.856653 0.045051 0.258932
0.945645 0.082355 0.480233
0.954131 0.205991 0.755558
0.852770 0.206972 0.855328
0.618680 0.311733 0.717143
0.372040 0.416500 0.575215
0.197877 0.509938 0.443245
0.118384 0.751230 0.346381
0.886679 0.000000 0.231832
0.996409 0.013688 0.405769
1.000000 0.121584 0.626696
1.000000 0.230440 0.933845
0.942694 0.258132 0.961835
0.743433 0.354628 0.829129
0.531712 0.456402 0.688124
0.308319 0.561247 0.539772
0.165504 0.640421 0.410157
0.499899 0.400900 0.000000
0.388140 0.390359 0.000702
0.272494 0.356632 0.026622
0.145587 0.322935 0.056114
0.000000 0.289891 0.101959
0.000000 0.402325 0.173660
0.000000 0.530813 0.249635
0.000000 0.654579 0.325533
0.000000 0.790288 0.435438
0.518922 0.328422 0.000000
0.545810 0.437745 0.030855
0.411372 0.424269 0.036121
0.272209 0.383000 0.068107
0.156872 0.350491 0.109022
0.151887 0.473244 0.207295
0.141443 0.598572 0.301831
0.123101 0.742185 0.410886
0.048264 0.887693 0.618463
0.477075 0.221154 0.000000
0.556238 0.339713 0.032176
0.548318 0.429055 0.083173
0.413470 0.418352 0.087284
0.298280 0.385316 0.125404
0.303122 0.504881 0.221239
0.302052 0.625851 0.327106
0.174660 0.878677 0.609756
0.219742 0.941058 0.799760
0.420668 0.117664 0.000000
0.509042 0.210217 0.032852
0.545416 0.319463 0.086574
0.550810 0.420298 0.141181
0.427248 0.412512 0.149891
0.438187 0.531508 0.242462
0.385135 0.699397 0.508831
0.337904 0.937380 0.803128
0.357385 1.000000 1.000000
0.360836 0.026688 0.000000
0.437029 0.088491 0.030596
0.497595 0.190745 0.086562
0.534562 0.299269 0.146322
0.553286 0.411477 0.205008
0.552297 0.556031 0.342041
0.533617 0.696984 0.626874
0.493234 0.927238 0.927219
0.499683 1.000000 1.000000
0.458787 0.000000 0.023592
0.563157 0.057306 0.063222
0.626268 0.167446 0.130926
0.656568 0.286852 0.196247
0.689556 0.393154 0.322224
0.539459 0.386190 0.343907
0.495579 0.525077 0.532904
0.390577 0.735493 0.697642
0.419580 0.866315 0.841050
0.604922 0.000000 0.066015
0.712377 0.052063 0.116074
0.755553 0.164458 0.186943
0.814520 0.235861 0.290724
0.821227 0.368131 0.512186
0.691020 0.363335 0.554155
0.504732 0.375921 0.534480
0.300555 0.644859 0.530020
0.301980 0.764199 0.619161
0.748449 0.000000 0.114810
0.849401 0.044551 0.176262
0.937268 0.081109 0.260602
0.948297 0.204038 0.464870
0.953701 0.332552 0.764276
0.837032 0.330264 0.837781
0.596663 0.425721 0.699009
0.337011 0.532210 0.553075
0.222406 0.729711 0.471599
0.880160 0.000000 0.170148
0.988098 0.013423 0.235658
1.000000 0.120491 0.403891
1.000000 0.229183 0.640376
1.000000 0.341464 0.977773
0.939674 0.365571 0.959823
0.727529 0.455133 0.818536
0.506570 0.549801 0.671380
0.264873 0.654561 0.510411
0.625850 0.535041 0.000000
0.512472 0.525012 0.003968
0.397446 0.493787 0.030483
0.277932 0.460185 0.057666
0.143010 0.421055 0.087975
0.000000 0.388413 0.136058
0.000000 0.517712 0.210600
0.000000 0.640921 0.283587
0.000000 0.769883 0.372729
0.657183 0.457042 0.000000
0.678586 0.592599 0.025156
0.547046 0.576920 0.034116
0.407379 0.539703 0.067570
0.261221 0.500080 0.102320
0.150810 0.470511 0.147152
0.140637 0.591569 0.242890
0.123413 0.720616 0.344213
0.049801 0.840407 0.457821
0.633750 0.346073 0.000000
0.704510 0.483841 0.024764
0.680608 0.580774 0.075647
0.549230 0.568332 0.079995
0.409055 0.531098 0.115104
0.300896 0.502487 0.157163
0.301115 0.624015 0.253730
0.176748 0.818936 0.426981
0.223157 0.884675 0.608212
0.602464 0.235810 0.000000
0.678882 0.347668 0.026688
0.694035 0.459157 0.074789
0.682632 0.568942 0.133017
0.551417 0.559736 0.132448
0.434926 0.529156 0.173450
0.384115 0.687122 0.312073
0.339928 0.860886 0.571545
0.361093 0.938168 0.789942
0.548178 0.133236 0.000000
0.644794 0.216944 0.028448
0.668101 0.327319 0.079386
0.683790 0.438465 0.131699
0.699701 0.578924 0.190425
0.550301 0.566710 0.195381
0.533703 0.709045 0.424910
0.496068 0.919561 0.764336
0.498992 0.996756 0.985595
0.481531 0.036558 0.000000
0.581107 0.095505 0.027443
0.632851 0.197154 0.083276
0.657252 0.307004 0.138123
0.686384 0.404316 0.186602
0.686901 0.545874 0.310675
0.682444 0.711227 0.573908
0.660166 0.929854 0.914913
0.647464 1.000000 1.000000
0.594249 0.000000 0.021299
0.701561 0.051503 0.055740
0.749753 0.162975 0.119498
0.808889 0.233949 0.169607
0.815115 0.365088 0.266235
0.816866 0.512404 0.513844
0.668279 0.505053 0.522464
0.540233 0.715958 0.682721
0.557571 0.872599 0.850142
0.739061 0.000000 0.064751
0.841469 0.044311 0.108229
0.931400 0.080257 0.158573
0.942192 0.201993 0.236340
0.947635 0.330099 0.449820
0.953736 0.468648 0.773405
0.811929 0.463656 0.813991
0.560725 0.539058 0.670857
0.411288 0.754172 0.607923
0.873288 0.000000 0.113833
0.983162 0.013267 0.160499
1.000000 0.119346 0.227824
1.000000 0.227794 0.395198
1.000000 0.338889 0.659557
1.000000 0.466149 1.000000
0.932462 0.477621 0.955020
0.694761 0.557822 0.796713
0.450942 0.643327 0.634332
0.739515 0.681902 0.000000
0.636371 0.666528 0.009542
0.520913 0.635773 0.036343
0.402559 0.604205 0.063802
0.277905 0.571039 0.092750
0.134711 0.533094 0.126051
0.000000 0.505460 0.174817
0.000000 0.628430 0.245626
0.000000 0.754950 0.327211
0.780964 0.613176 0.000000
0.800449 0.758903 0.025050
0.677673 0.733162 0.041061
0.539482 0.694770 0.071148
0.397160 0.656553 0.102841
0.244150 0.615984 0.138484
0.139828 0.589635 0.185420
0.123583 0.708484 0.287225
0.050429 0.818693 0.384054
0.763741 0.473474 0.000000
0.836397 0.658984 0.023537
0.802339 0.746922 0.082815
0.679897 0.724432 0.092355
0.541384 0.686011 0.119597
0.398502 0.647687 0.148973
0.299517 0.621985 0.190318
0.177049 0.800635 0.345988
0.225910 0.837319 0.447331
0.744462 0.361387 0.000000
0.815438 0.489807 0.020715
0.826167 0.631849 0.077162
0.851780 0.814259 0.131528
0.697449 0.772296 0.142420
0.519718 0.721663 0.174086
0.382288 0.684433 0.221065
0.340569 0.832440 0.381925
0.363985 0.880288 0.593307
0.720922 0.252284 0.000000
0.794686 0.353669 0.021524
0.805595 0.465036 0.069180
0.864578 0.640254 0.114272
0.843004 0.786334 0.208244
0.683999 0.747295 0.209472
0.530120 0.704258 0.250537
0.495484 0.865736 0.502334
0.501220 0.933539 0.774215
0.683087 0.147534 0.000000
0.768796 0.224266 0.023100
0.784483 0.333213 0.072302
0.838485 0.437208 0.100800
0.841186 0.588078 0.180292
0.830426 0.751816 0.310612
0.678995 0.721039 0.322313
0.660207 0.901603 0.709248
0.648812 0.991185 0.961850
0.624241 0.047871 0.000000
0.723299 0.100679 0.023522
0.757657 0.204231 0.076503
0.812678 0.272982 0.106031
0.815434 0.391705 0.166026
0.813433 0.527339 0.271221
0.812018 0.706796 0.522630
0.799238 0.917998 0.882717
0.774654 1.000000 1.000000
0.729464 0.000000 0.018364
0.833080 0.044031 0.047168
0.925377 0.079401 0.077839
0.938438 0.200737 0.142461
0.942127 0.327822 0.215139
0.945489 0.463963 0.436395
0.957784 0.668662 0.795503
0.773021 0.642297 0.781594
0.662441 0.860674 0.832677
0.866076 0.000000 0.062288
0.977649 0.013100 0.091899
1.000000 0.118642 0.150952
1.000000 0.226067 0.215786
1.000000 0.336503 0.393207
1.000000 0.453617 0.671369
1.000000 0.634194 1.000000
0.912005 0.627234 0.941396
0.620493 0.683206 0.747251
0.854146 0.844738 0.000000
0.750817 0.813498 0.019833
0.645740 0.782820 0.043373
0.522155 0.747488 0.071297
0.400321 0.713672 0.099146
0.274015 0.679902 0.128425
0.123547 0.640740 0.163643
0.000000 0.617055 0.211497
0.000000 0.741403 0.286259
0.904278 0.783994 0.000000
0.929714 0.948296 0.033353
0.803354 0.905506 0.056752
0.678553 0.863078 0.080193
0.527762 0.817986 0.111846
0.377177 0.774321 0.144239
0.218457 0.730563 0.179476
0.123725 0.706746 0.227588
0.050911 0.801765 0.326543
0.882073 0.631552 0.000000
0.977076 0.864338 0.025473
1.000000 1.000000 0.062513
0.854221 0.967654 0.089701
0.694410 0.932194 0.121739
0.498733 0.888777 0.162967
0.301960 0.831878 0.203443
0.177271 0.797686 0.261232
0.226581 0.828390 0.363569
0.864256 0.489914 0.000000
0.945510 0.667048 0.020096
1.000000 0.941138 0.054543
1.000000 1.000000 0.159846
0.845384 0.965693 0.176503
0.680672 0.929146 0.198923
0.474617 0.868085 0.227487
0.339591 0.828720 0.281669
0.365584 0.859233 0.420018
0.848593 0.375421 0.000000
0.921682 0.495123 0.017487
1.000000 0.689953 0.039336
1.000000 0.895194 0.135078
1.000000 1.000000 0.260350
0.832267 0.962783 0.267968
0.655299 0.909581 0.277762
0.493721 0.857811 0.319368
0.502445 0.889600 0.550600
0.830658 0.266708 0.000000
0.904394 0.358724 0.016741
0.982462 0.469682 0.032537
0.994859 0.633353 0.099156
1.000000 0.841328 0.213609
0.999092 0.999799 0.363686
0.811699 0.940971 0.358516
0.655062 0.889270 0.390768
0.647921 0.925027 0.745297
0.805456 0.159899 0.000000
0.884791 0.229497 0.018001
0.962210 0.304215 0.031055
0.965067 0.424650 0.086019
0.972021 0.572296 0.162498
0.988149 0.773576 0.289574
0.983364 0.968036 0.559490
0.794832 0.908974 0.575604
0.775122 0.980179 0.918648
0.761260 0.059061 0.000000
0.854270 0.103744 0.019163
0.937586 0.143966 0.033769
0.943885 0.255179 0.085843
0.945045 0.370919 0.145312
0.944516 0.496527 0.230016
0.950977 0.680250 0.457309
0.947966 0.902236 0.802642
0.889488 1.000000 1.000000
0.858541 0.000000 0.014942
0.971485 0.013021 0.028893
1.000000 0.117893 0.081889
1.000000 0.225015 0.137113
1.000000 0.334535 0.206960
1.000000 0.449355 0.375555
1.000000 0.616516 0.679181
1.000000 0.803336 1.000000
0.797053 0.790073 0.864839
0.976863 0.994866 0.005696
0.868563 0.970836 0.032360
0.762299 0.943409 0.057305
0.653565 0.907246 0.080266
0.522110 0.865986 0.108805
0.393765 0.827608 0.137271
0.262156 0.789757 0.166936
0.106515 0.747824 0.202914
0.000000 0.729274 0.249981
1.000000 0.980833 0.000000
1.000000 1.000000 0.010614
0.952298 0.989416 0.021043
0.813733 0.958670 0.054015
0.676517 0.928224 0.086801
0.502489 0.889610 0.128629
0.335023 0.852452 0.169110
0.154642 0.812428 0.213066
0.051358 0.789511 0.273066
1.000000 0.815655 0.000000
1.000000 1.000000 0.010120
1.000000 1.000000 0.114629
0.960646 0.991268 0.110491
0.816806 0.959352 0.133826
0.673060 0.927457 0.158528
0.492013 0.887286 0.192233
0.317817 0.848634 0.226707
0.226935 0.828469 0.282971
0.982920 0.650725 0.000000
1.000000 0.906080 0.007497
1.000000 1.000000 0.105759
1.000000 1.000000 0.225706
0.967115 0.992703 0.207214
0.816130 0.959202 0.221011
0.661953 0.924993 0.237798
0.472072 0.882861 0.263385
0.365484 0.859211 0.318096
0.962147 0.506348 0.000000
1.000000 0.695479 0.005628
1.000000 0.884343 0.079156
1.000000 1.000000 0.201856
1.000000 1.000000 0.342115
0.970206 0.993389 0.309779
0.808884 0.957594 0.314372
0.637514 0.919570 0.323606
0.501910 0.889482 0.374138
0.947758 0.389022 0.000000
1.000000 0.502366 0.004630
1.000000 0.665967 0.060012
1.000000 0.857124 0.152318
1.000000 1.000000 0.296750
1.000000 1.000000 0.461611
0.966449 0.992556 0.416179
0.788550 0.953083 0.412052
0.645873 0.921425 0.454801
0.933490 0.279813 0.000000
1.000000 0.357529 0.004155
1.000000 0.470534 0.050256
1.000000 0.627779 0.116326
1.000000 0.820108 0.224897
1.000000 1.000000 0.387351
1.000000 1.000000 0.627009
0.946299 0.988085 0.573538
0.770899 0.949166 0.624251
0.915675 0.172953 0.000000
1.000000 0.221429 0.004344
1.000000 0.326184 0.045765
1.000000 0.435234 0.099824
1.000000 0.574237 0.172284
1.000000 0.763092 0.292456
1.000000 0.967117 0.517614
1.000000 1.000000 0.798991
0.885136 0.974513 0.791522
0.886731 0.069455 0.000000
0.990637 0.088895 0.004688
1.000000 0.186095 0.048487
1.000000 0.285573 0.093275
1.000000 0.386884 0.152603
1.000000 0.494592 0.226070
1.000000 0.656265 0.398197
1.000000 0.819560 0.639140
1.000000 1.000000 1.000000
