graphics/icons/cupric-lut.cube
#Created by: Affinity Photo (Serif Europe Ltd.)
TITLE "cupric-lut"
#LUT size
LUT_3D_SIZE 5
#data domain
DOMAIN_MIN 0.0 0.0 0.0
DOMAIN_MAX 1.0 1.0 1.0
#LUT data points
0.000000 0.000000 0.000000
0.000000 0.134222 0.094886
0.000000 0.308402 0.236378
0.000000 0.559019 0.491125
0.000000 0.858171 0.857614
0.202269 0.000000 0.065543
0.044253 0.017065 0.066467
0.000000 0.155515 0.158307
0.000000 0.402237 0.390559
0.000000 0.682518 0.614826
0.374257 0.000000 0.152298
0.236481 0.000000 0.151764
0.063257 0.053680 0.129645
0.000000 0.302869 0.275806
0.000000 0.625208 0.424210
0.654078 0.000000 0.355744
0.458591 0.000000 0.388772
0.245081 0.059384 0.317923
0.069241 0.170167 0.244527
0.000000 0.506773 0.305151
0.911691 0.000000 0.683955
0.761182 0.013456 0.773969
0.416533 0.146529 0.571097
0.205037 0.241121 0.423056
0.062678 0.333171 0.309518
0.237445 0.169249 0.000000
0.000000 0.132861 0.043300
0.000000 0.314166 0.176861
0.000000 0.560685 0.340841
0.000000 0.874548 0.697921
0.199556 0.011947 0.000000
0.264117 0.174642 0.088933
0.300916 0.373181 0.245650
0.301749 0.637914 0.565014
0.221529 1.000000 1.000000
0.356437 0.000000 0.065374
0.506998 0.173089 0.207535
0.269774 0.159077 0.197485
0.234348 0.459970 0.434473
0.145724 0.765563 0.624753
0.626272 0.000000 0.165513
0.769354 0.168239 0.458018
0.546650 0.159917 0.510439
0.229717 0.285460 0.378846
0.072569 0.765050 0.325297
0.896229 0.000000 0.358063
1.000000 0.122629 0.894818
0.748733 0.245427 0.832658
0.339290 0.420865 0.563357
0.105404 0.546936 0.347479
0.499899 0.400900 0.000000
0.272494 0.356632 0.026622
0.000000 0.289891 0.101959
0.000000 0.530813 0.249635
0.000000 0.790288 0.435438
0.477075 0.221154 0.000000
0.548318 0.429055 0.083173
0.298280 0.385316 0.125404
0.302052 0.625851 0.327106
0.219742 0.941058 0.799760
0.360836 0.026688 0.000000
0.497595 0.190745 0.086562
0.553286 0.411477 0.205008
0.533617 0.696984 0.626874
0.499683 1.000000 1.000000
0.604922 0.000000 0.066015
0.755553 0.164458 0.186943
0.821227 0.368131 0.512186
0.504732 0.375921 0.534480
0.301980 0.764199 0.619161
0.880160 0.000000 0.170148
1.000000 0.120491 0.403891
1.000000 0.341464 0.977773
0.727529 0.455133 0.818536
0.264873 0.654561 0.510411
0.739515 0.681902 0.000000
0.520913 0.635773 0.036343
0.277905 0.571039 0.092750
0.000000 0.505460 0.174817
0.000000 0.754950 0.327211
0.763741 0.473474 0.000000
0.802339 0.746922 0.082815
0.541384 0.686011 0.119597
0.299517 0.621985 0.190318
0.225910 0.837319 0.447331
0.720922 0.252284 0.000000
0.805595 0.465036 0.069180
0.843004 0.786334 0.208244
0.530120 0.704258 0.250537
0.501220 0.933539 0.774215
0.624241 0.047871 0.000000
0.757657 0.204231 0.076503
0.815434 0.391705 0.166026
0.812018 0.706796 0.522630
0.774654 1.000000 1.000000
0.866076 0.000000 0.062288
1.000000 0.118642 0.150952
1.000000 0.336503 0.393207
1.000000 0.634194 1.000000
0.620493 0.683206 0.747251
0.976863 0.994866 0.005696
0.762299 0.943409 0.057305
0.522110 0.865986 0.108805
0.262156 0.789757 0.166936
0.000000 0.729274 0.249981
1.000000 0.815655 0.000000
1.000000 1.000000 0.114629
0.816806 0.959352 0.133826
0.492013 0.887286 0.192233
0.226935 0.828469 0.282971
0.962147 0.506348 0.000000
1.000000 0.884343 0.079156
1.000000 1.000000 0.342115
0.808884 0.957594 0.314372
0.501910 0.889482 0.374138
0.933490 0.279813 0.000000
1.000000 0.470534 0.050256
1.000000 0.820108 0.224897
1.000000 1.000000 0.627009
0.770899 0.949166 0.624251
0.886731 0.069455 0.000000
1.000000 0.186095 0.048487
1.000000 0.386884 0.152603
1.000000 0.656265 0.398197
1.000000 1.000000 1.000000
