graphics/icons/cupric-lut.cube
#Created by: Affinity Photo (Serif Europe Ltd.)
TITLE "cupric-lut"
#LUT size
LUT_3D_SIZE 17
#data domain
DOMAIN_MIN 0.0 0.0 0.0
DOMAIN_MAX 1.0 1.0 1.0
#LUT data points
0.000000 0.000000 0.000000
0.000000 0.031157 0.020541
0.000000 0.063131 0.042511
0.000000 0.097337 0.067081
0.000000 0.134222 0.094886
0.000000 0.173270 0.126036
0.000000 0.215024 0.160271
0.000000 0.261413 0.197176
0.000000 0.308402 0.236378
0.000000 0.355847 0.280188
0.000000 0.418981 0.345109
0.000000 0.489302 0.416125
0.000000 0.559019 0.491125
0.000000 0.629428 0.571671
0.000000 0.702158 0.660153
0.000000 0.779224 0.762673
0.000000 0.858171 0.857614
0.082380 0.000000 0.015469
0.021348 0.000000 0.016774
0.000000 0.032682 0.033810
0.000000 0.061569 0.055248
0.000000 0.096639 0.080705
0.000000 0.134633 0.109648
0.000000 0.175085 0.142143
0.000000 0.217863 0.177908
0.000000 0.264657 0.216523
0.000000 0.313017 0.260205
0.000000 0.369136 0.328018
0.000000 0.432093 0.396983
0.000000 0.503445 0.472949
0.000000 0.574478 0.553341
0.000000 0.646547 0.639909
0.000000 0.723129 0.722396
0.000000 0.799758 0.793077
0.125599 0.000000 0.031375
0.090719 0.000000 0.033960
0.030796 0.002102 0.033588
0.000000 0.044891 0.049906
0.000000 0.068099 0.070212
0.000000 0.095837 0.094532
0.000000 0.134951 0.124683
0.000000 0.176828 0.158614
0.000000 0.220845 0.196021
0.000000 0.269033 0.239107
0.000000 0.325862 0.307621
0.000000 0.383241 0.379022
0.000000 0.450100 0.449961
0.000000 0.526230 0.525427
0.000000 0.601959 0.599033
0.000000 0.677060 0.668944
0.000000 0.751437 0.731992
0.164335 0.000000 0.047968
0.136393 0.000000 0.051853
0.095075 0.000000 0.051232
0.038077 0.009163 0.050133
0.000000 0.057213 0.065443
0.000000 0.081077 0.086362
0.000000 0.108507 0.111305
0.000000 0.139978 0.140814
0.000000 0.178498 0.175464
0.000000 0.224930 0.217274
0.000000 0.285203 0.285157
0.000000 0.354945 0.353738
0.000000 0.424314 0.419939
0.000000 0.493219 0.484260
0.000000 0.567351 0.553048
0.000000 0.640498 0.616780
0.000000 0.712412 0.672702
0.202269 0.000000 0.065543
0.178326 0.000000 0.070817
0.140621 0.000000 0.069670
0.099432 0.000000 0.068742
0.044253 0.017065 0.066467
0.000000 0.069650 0.080406
0.000000 0.094212 0.101913
0.000000 0.122691 0.127728
0.000000 0.155515 0.158307
0.000000 0.195263 0.196458
0.000000 0.262046 0.260907
0.000000 0.332022 0.326591
0.000000 0.402237 0.390559
0.000000 0.471631 0.450561
0.000000 0.540082 0.506935
0.000000 0.611967 0.565040
0.000000 0.682518 0.614826
0.241170 0.000000 0.084428
0.220219 0.000000 0.091272
0.182930 0.000000 0.089395
0.144926 0.000000 0.087817
0.103800 0.000000 0.086525
0.049703 0.025557 0.082586
0.000000 0.082202 0.094780
0.000000 0.107508 0.116845
0.000000 0.137097 0.143471
0.000000 0.173943 0.177611
0.000000 0.238292 0.237455
0.000000 0.309168 0.299440
0.000000 0.381794 0.360894
0.000000 0.452704 0.418151
0.000000 0.522282 0.469690
0.000000 0.590533 0.515040
0.000000 0.660255 0.558120
0.282231 0.000000 0.104964
0.263987 0.000000 0.113669
0.225476 0.000000 0.110857
0.187656 0.000000 0.108412
0.149315 0.000000 0.106337
0.108191 0.000000 0.104620
0.054617 0.034524 0.098488
0.000000 0.094872 0.108549
0.000000 0.120970 0.131136
0.000000 0.154272 0.160970
0.000000 0.215087 0.215650
0.000000 0.283413 0.273139
0.000000 0.358901 0.331264
0.000000 0.434763 0.386484
0.000000 0.506553 0.434510
0.000000 0.576473 0.474786
0.000000 0.644613 0.505306
0.326364 0.000000 0.127484
0.310962 0.000000 0.138460
0.270115 0.000000 0.134526
0.230895 0.000000 0.131002
0.192511 0.000000 0.127916
0.153795 0.000000 0.125274
0.111439 0.007846 0.121780
0.059111 0.043907 0.114174
0.000000 0.107662 0.121697
0.000000 0.137096 0.147127
0.000000 0.193518 0.196300
0.000000 0.257990 0.248625
0.000000 0.330851 0.302576
0.000000 0.411465 0.355003
0.000000 0.491167 0.401524
0.000000 0.563989 0.437373
0.000000 0.634407 0.462995
0.374257 0.000000 0.152298
0.362121 0.000000 0.166069
0.318132 0.000000 0.160868
0.276436 0.000000 0.156079
0.236481 0.000000 0.151764
0.197502 0.000000 0.147959
0.158373 0.000000 0.144677
0.114178 0.018638 0.138386
0.063257 0.053680 0.129645
0.000000 0.123049 0.136484
0.000000 0.174668 0.180066
0.000000 0.234158 0.226764
0.000000 0.302869 0.275806
0.000000 0.380834 0.324618
0.000000 0.467074 0.369030
0.000000 0.551243 0.403906
0.000000 0.625208 0.424210
0.428372 0.000000 0.179801
0.418430 0.000000 0.200209
0.370738 0.000000 0.193635
0.325765 0.000000 0.187420
0.283157 0.000000 0.181672
0.242396 0.000000 0.176466
0.202748 0.000000 0.171853
0.162362 0.003543 0.167059
0.116439 0.032140 0.157416
0.066878 0.066285 0.147373
0.000000 0.159451 0.167390
0.000000 0.213228 0.208242
0.000000 0.276396 0.251836
0.000000 0.349949 0.296285
0.000000 0.433593 0.337885
0.000000 0.525936 0.371445
0.000000 0.615221 0.391240
0.502699 0.000000 0.219922
0.498722 0.000000 0.268925
0.431036 0.000000 0.259116
0.382069 0.000000 0.251124
0.335784 0.000000 0.243523
0.291892 0.000000 0.236455
0.249930 0.000000 0.230029
0.206062 0.011337 0.220935
0.160201 0.038012 0.208269
0.115503 0.066433 0.196161
0.068208 0.099932 0.183598
0.000000 0.196369 0.193462
0.000000 0.252971 0.231322
0.000000 0.320448 0.270836
0.000000 0.399466 0.308944
0.000000 0.489358 0.340735
0.000000 0.588251 0.360059
0.579282 0.000000 0.285120
0.581605 0.000000 0.344895
0.513284 0.000000 0.333738
0.444255 0.000000 0.321746
0.393694 0.000000 0.312016
0.346158 0.000000 0.302747
0.301012 0.000000 0.294064
0.250567 0.021214 0.278025
0.202463 0.047247 0.261434
0.157539 0.073649 0.246015
0.114137 0.101702 0.231252
0.069011 0.134435 0.216011
0.000000 0.233963 0.214518
0.000000 0.294103 0.248847
0.000000 0.366538 0.282912
0.000000 0.451659 0.312436
0.000000 0.548359 0.331245
0.654078 0.000000 0.355744
0.661941 0.000000 0.427813
0.595644 0.000000 0.416142
0.527665 0.000000 0.403041
0.458591 0.000000 0.388772
0.405541 0.000000 0.376839
0.353691 0.006602 0.362407
0.296641 0.033447 0.339208
0.245081 0.059384 0.317923
0.197985 0.084939 0.298322
0.154199 0.110851 0.280050
0.112220 0.138337 0.262530
0.069241 0.170167 0.244527
0.015137 0.257137 0.240332
0.000000 0.336835 0.260212
0.000000 0.414905 0.287013
0.000000 0.506773 0.305151
0.725479 0.000000 0.431656
0.732215 0.000000 0.509616
0.674780 0.000000 0.505768
0.609269 0.000000 0.492442
0.541787 0.000000 0.477303
0.472853 0.000000 0.460599
0.405602 0.021465 0.433376
0.343849 0.048767 0.404586
0.288315 0.074818 0.378039
0.238136 0.100004 0.353596
0.192378 0.124835 0.331008
0.149986 0.150027 0.309886
0.109610 0.176735 0.289601
0.068828 0.207509 0.268831
0.020554 0.291497 0.258070
0.000000 0.381392 0.264648
0.000000 0.465791 0.281864
0.792559 0.000000 0.512561
0.798075 0.000000 0.596414
0.749214 0.000000 0.601870
0.687081 0.000000 0.589130
0.622435 0.000000 0.574161
0.554894 0.001030 0.556190
0.462240 0.038110 0.510425
0.390613 0.068169 0.473168
0.331204 0.094365 0.441097
0.277724 0.119354 0.411428
0.229393 0.143523 0.384017
0.185363 0.167373 0.358600
0.144681 0.191600 0.334758
0.106144 0.217306 0.311813
0.067679 0.246850 0.288369
0.023750 0.329498 0.270015
0.000000 0.428006 0.261203
0.854317 0.000000 0.596511
0.858265 0.000000 0.685640
0.817887 0.000000 0.703001
0.759956 0.000000 0.692103
0.698840 0.000000 0.678150
0.621831 0.019886 0.644079
0.532200 0.055084 0.595237
0.440858 0.089906 0.546270
0.371711 0.118996 0.505090
0.315285 0.143851 0.470178
0.264449 0.167521 0.437795
0.218489 0.190406 0.407784
0.176636 0.213009 0.379861
0.138040 0.236013 0.353580
0.101640 0.260479 0.328216
0.065675 0.288596 0.302313
0.025408 0.370808 0.275371
0.911691 0.000000 0.683955
0.914856 0.000000 0.779923
0.880666 0.000000 0.808260
0.826480 0.000000 0.799330
0.761182 0.013456 0.773969
0.678489 0.047269 0.724356
0.593272 0.080872 0.673686
0.505831 0.114013 0.622411
0.416533 0.146529 0.571097
0.348406 0.174346 0.526703
0.295621 0.197661 0.489585
0.248054 0.219778 0.455098
0.205037 0.241121 0.423056
0.165870 0.262211 0.393147
0.129794 0.283726 0.364890
0.095888 0.306697 0.337519
0.062678 0.333171 0.309518
0.080664 0.034748 0.000000
0.000000 0.033364 0.009554
0.000000 0.067634 0.032986
0.000000 0.104442 0.059273
0.000000 0.144086 0.089198
0.000000 0.185627 0.122819
0.000000 0.233384 0.159729
0.000000 0.284016 0.199388
0.000000 0.334595 0.241387
0.000000 0.389157 0.283490
0.000000 0.463949 0.351619
0.000000 0.538693 0.427077
0.000000 0.613678 0.508144
0.000000 0.684443 0.589872
0.000000 0.759749 0.686508
0.000000 0.838817 0.789786
0.000000 0.922022 0.898255
0.082145 0.002882 0.000000
0.085472 0.034862 0.017207
0.085163 0.072402 0.037861
0.084888 0.111130 0.068688
0.084004 0.149828 0.106359
0.081952 0.192962 0.141895
0.078310 0.241545 0.180637
0.072786 0.292086 0.222121
0.065134 0.342440 0.266059
0.054596 0.405312 0.330436
0.040655 0.481490 0.407239
0.019084 0.557132 0.488852
0.000000 0.629428 0.571671
0.000000 0.702158 0.660153
0.000000 0.779224 0.762673
0.000000 0.858171 0.857614
0.000000 0.931603 0.926149
0.124769 0.000000 0.014187
0.134941 0.031950 0.035186
0.085908 0.031499 0.036265
0.079549 0.064923 0.057634
0.078586 0.103787 0.088352
0.076933 0.146404 0.121346
0.074007 0.191355 0.158296
0.069339 0.239931 0.198764
0.062542 0.290986 0.242280
0.053232 0.349643 0.310341
0.039931 0.414220 0.384578
0.018861 0.490590 0.466933
0.000000 0.564425 0.549913
0.000000 0.637333 0.636619
0.000000 0.715221 0.713929
0.000000 0.792254 0.784154
0.000000 0.864856 0.842234
0.163089 0.000000 0.030319
0.179393 0.029127 0.054210
0.139808 0.028627 0.056738
0.086346 0.028141 0.055518
0.073471 0.060271 0.077095
0.071645 0.102219 0.102993
0.069507 0.142507 0.136378
0.065553 0.189187 0.174820
0.059605 0.238427 0.217127
0.051184 0.297921 0.285126
0.038741 0.362231 0.362190
0.017955 0.437192 0.436097
0.000000 0.513422 0.510642
0.000000 0.589554 0.583764
0.000000 0.664879 0.652816
0.000000 0.739172 0.714923
0.000000 0.810764 0.764147
0.200527 0.000000 0.047268
0.223109 0.026349 0.074547
0.188446 0.025847 0.078675
0.140467 0.025241 0.076663
0.086786 0.024787 0.074969
0.065691 0.072323 0.094228
0.062900 0.116005 0.120283
0.060282 0.151369 0.153357
0.055888 0.191412 0.191899
0.047648 0.258111 0.257739
0.035549 0.333392 0.330514
0.016513 0.409454 0.401117
0.000000 0.480913 0.465855
0.000000 0.552776 0.529794
0.000000 0.626415 0.592873
0.000000 0.698580 0.647740
0.000000 0.768909 0.690139
0.238840 0.000000 0.065342
0.267997 0.023559 0.096492
0.236850 0.023100 0.102478
0.189366 0.022407 0.099443
0.141131 0.021854 0.096823
0.086584 0.026986 0.093923
0.057900 0.084678 0.110276
0.054143 0.129772 0.136321
0.050225 0.166333 0.170020
0.043029 0.230242 0.230344
0.032370 0.306623 0.298484
0.015180 0.384316 0.365972
0.000000 0.457821 0.426720
0.000000 0.527873 0.482092
0.000000 0.597760 0.533294
0.000000 0.668957 0.582284
0.000000 0.737925 0.618178
0.279219 0.000000 0.084869
0.315260 0.020691 0.120355
0.287257 0.020310 0.128584
0.238086 0.019575 0.124295
0.190298 0.018960 0.120496
0.141802 0.018464 0.117225
0.085325 0.038211 0.111413
0.050020 0.097413 0.125210
0.045238 0.143509 0.151113
0.038746 0.203073 0.205123
0.029305 0.276223 0.267453
0.013867 0.357665 0.330652
0.000000 0.436341 0.389368
0.000000 0.509179 0.440003
0.000000 0.579506 0.483987
0.000000 0.648116 0.518397
0.000000 0.716957 0.548609
0.322589 0.000000 0.106173
0.365749 0.017668 0.146442
0.341069 0.017388 0.157435
0.288869 0.016665 0.151689
0.239338 0.016033 0.146464
0.191240 0.015500 0.141846
0.142479 0.015069 0.137876
0.084032 0.049593 0.128306
0.041921 0.110661 0.138982
0.034957 0.178386 0.183415
0.026463 0.246405 0.238989
0.012609 0.324232 0.296653
0.000000 0.408728 0.352181
0.000000 0.491167 0.401524
0.000000 0.564967 0.439968
0.000000 0.635763 0.468912
0.000000 0.703931 0.483335
0.369666 0.000000 0.129554
0.420040 0.014409 0.175046
0.399222 0.014237 0.189463
0.343117 0.013582 0.182105
0.290505 0.012988 0.175234
0.240608 0.012466 0.169001
0.192193 0.012024 0.163502
0.140926 0.023391 0.156303
0.082706 0.061131 0.144581
0.032391 0.145418 0.169642
0.023933 0.219299 0.214521
0.011443 0.291265 0.265620
0.000000 0.372372 0.316648
0.000000 0.461606 0.363722
0.000000 0.550251 0.401364
0.000000 0.625208 0.424210
0.000000 0.696671 0.433910
0.423007 0.000000 0.155388
0.493619 0.010985 0.210207
0.473296 0.010961 0.254467
0.404302 0.010356 0.244376
0.347400 0.009856 0.235416
0.293965 0.009398 0.227060
0.243269 0.008990 0.219507
0.190471 0.022731 0.208890
0.135353 0.055522 0.194243
0.079161 0.093228 0.179683
0.022132 0.187025 0.198508
0.010396 0.261273 0.238955
0.000000 0.336262 0.284318
0.000000 0.422205 0.327953
0.000000 0.517685 0.364177
0.000000 0.613703 0.386661
0.000000 0.689980 0.390051
0.496201 0.000000 0.184736
0.574080 0.007089 0.279140
0.561562 0.007127 0.334964
0.479638 0.006689 0.321673
0.410027 0.006298 0.309217
0.352283 0.005970 0.298238
0.297953 0.005665 0.287990
0.238391 0.029685 0.269703
0.181786 0.060888 0.250517
0.128723 0.093403 0.232665
0.074964 0.130934 0.214769
0.009541 0.232940 0.219137
0.000000 0.303207 0.256420
0.000000 0.382727 0.295531
0.000000 0.474887 0.329535
0.000000 0.577137 0.351565
0.000000 0.681667 0.354904
0.570334 0.000000 0.222760
0.652822 0.002269 0.354189
0.647601 0.002298 0.423604
0.567797 0.002156 0.409244
0.485910 0.001997 0.392979
0.415753 0.001853 0.377738
0.354669 0.007087 0.361752
0.286981 0.039007 0.334302
0.226868 0.069764 0.309511
0.172527 0.100349 0.286933
0.121745 0.132363 0.265808
0.070594 0.169511 0.244470
0.000000 0.276061 0.233560
0.000000 0.346254 0.267397
0.000000 0.431606 0.298370
0.000000 0.530621 0.319718
0.000000 0.640137 0.323613
0.645830 0.000000 0.288186
0.725479 0.000000 0.431656
0.726630 0.000000 0.515279
0.651215 0.000000 0.501140
0.572673 0.000000 0.484399
0.491766 0.000000 0.465288
0.411552 0.018910 0.436105
0.338556 0.051182 0.402082
0.274136 0.081754 0.371173
0.216848 0.111298 0.343118
0.165087 0.140766 0.317429
0.116883 0.171685 0.293270
0.068828 0.207509 0.268831
0.000000 0.315855 0.243714
0.000000 0.391221 0.271208
0.000000 0.483117 0.291506
0.000000 0.589617 0.296544
0.718316 0.000000 0.358588
0.792559 0.000000 0.512561
0.798956 0.000000 0.610905
0.728795 0.000000 0.597863
0.655057 0.000000 0.581930
0.578086 0.000000 0.562931
0.477287 0.031946 0.518028
0.390613 0.068169 0.473168
0.321899 0.098604 0.435988
0.261082 0.127479 0.402050
0.206897 0.155451 0.371081
0.157936 0.183427 0.342564
0.112486 0.212847 0.315618
0.067679 0.246850 0.288369
0.013840 0.341195 0.261766
0.000000 0.438325 0.266862
0.000000 0.537491 0.273350
0.786638 0.000000 0.433860
0.854317 0.000000 0.596511
0.858846 0.000000 0.699877
0.800644 0.000000 0.700311
0.732081 0.000000 0.685972
0.655730 0.006278 0.662697
0.553060 0.046992 0.606543
0.447863 0.087241 0.550026
0.367157 0.120958 0.502313
0.303083 0.149405 0.462485
0.246236 0.176391 0.425985
0.195494 0.202574 0.392513
0.149626 0.228840 0.361527
0.107152 0.256555 0.332102
0.065675 0.288596 0.302313
0.018280 0.379531 0.268250
0.000000 0.487799 0.253158
0.850053 0.000000 0.513104
0.911691 0.000000 0.683955
0.915289 0.000000 0.794140
0.865359 0.000000 0.805889
0.802722 0.000000 0.794919
0.714252 0.032788 0.745770
0.617862 0.071309 0.688247
0.518444 0.109315 0.629752
0.416533 0.146529 0.571097
0.340521 0.177764 0.521235
0.281527 0.204085 0.479469
0.229101 0.228992 0.441081
0.182231 0.253165 0.405731
0.139835 0.277485 0.372832
0.100644 0.303268 0.341418
0.062678 0.333171 0.309518
0.020326 0.422522 0.266383
0.908272 0.000000 0.594036
0.966269 0.000000 0.777575
0.969137 0.000000 0.894938
0.926482 0.000000 0.918971
0.846181 0.031186 0.870812
0.760120 0.067834 0.814850
0.671153 0.104230 0.757493
0.577672 0.140530 0.697991
0.481367 0.175969 0.637988
0.382671 0.210241 0.578240
0.310116 0.239017 0.527126
0.256692 0.263105 0.484327
0.209200 0.285766 0.444952
0.166699 0.307715 0.408576
0.128230 0.329851 0.374552
0.092708 0.353459 0.341855
0.058525 0.381022 0.308468
0.129225 0.072991 0.000000
0.079908 0.071795 0.000000
0.000000 0.066182 0.019672
0.000000 0.101898 0.044897
0.000000 0.140214 0.073495
0.000000 0.180227 0.105626
0.000000 0.227079 0.140929
0.000000 0.277307 0.178861
0.000000 0.327547 0.218986
0.000000 0.380899 0.260149
0.000000 0.447770 0.303152
0.000000 0.521147 0.372388
0.000000 0.594734 0.447882
0.000000 0.669965 0.530327
0.000000 0.750217 0.629133
0.000000 0.835172 0.738503
0.000000 0.925153 0.847785
0.130563 0.041256 0.000000
0.138464 0.077477 0.016585
0.084859 0.075985 0.017987
0.085124 0.118147 0.051476
0.084754 0.159667 0.092466
0.083072 0.204065 0.134156
0.079612 0.258525 0.175659
0.074096 0.313568 0.220009
0.066098 0.369964 0.265558
0.055274 0.444422 0.324787
0.041056 0.525943 0.405869
0.019237 0.607644 0.493425
0.000000 0.686942 0.584635
0.000000 0.769480 0.691008
0.000000 0.848172 0.793957
0.000000 0.931063 0.901466
0.000000 1.000000 1.000000
0.124851 0.005812 0.000000
0.134437 0.035429 0.015822
0.139146 0.073971 0.036994
0.144664 0.117422 0.061153
0.150119 0.163247 0.092517
0.154762 0.204255 0.135062
0.158076 0.246769 0.181683
0.159815 0.295952 0.224304
0.159442 0.347183 0.266702
0.156719 0.408952 0.327257
0.152818 0.483706 0.402891
0.147714 0.558449 0.483756
0.141840 0.634791 0.571900
0.133427 0.715270 0.673635
0.122539 0.800213 0.786674
0.000000 0.931603 0.926149
0.047727 0.987359 0.987194
0.161881 0.000000 0.012912
0.177489 0.028944 0.032229
0.187995 0.072173 0.057329
0.139835 0.070469 0.057701
0.139518 0.109027 0.082882
0.144525 0.154848 0.115214
0.148752 0.196011 0.159901
0.151672 0.244360 0.201616
0.153029 0.295114 0.245241
0.152567 0.353412 0.309192
0.149455 0.417807 0.381817
0.145120 0.492841 0.462956
0.139629 0.569377 0.550274
0.133355 0.647752 0.645543
0.118941 0.732812 0.730779
0.000000 0.855688 0.829914
0.045651 0.902130 0.890038
0.198837 0.000000 0.029309
0.220495 0.026137 0.051575
0.236257 0.070538 0.079227
0.193470 0.068845 0.081184
0.140532 0.066970 0.078715
0.134347 0.100742 0.104605
0.138891 0.146462 0.138024
0.142682 0.193403 0.177984
0.145188 0.243064 0.220767
0.146464 0.301239 0.286230
0.145617 0.363134 0.362444
0.138868 0.436767 0.436270
0.130984 0.516227 0.514160
0.121446 0.597760 0.592113
0.110011 0.678897 0.665188
0.000000 0.796667 0.741001
0.042643 0.838023 0.796687
0.236576 0.000000 0.046656
0.264575 0.023330 0.072328
0.285894 0.068994 0.102935
0.246798 0.067408 0.106798
0.194466 0.065297 0.103284
0.141237 0.063474 0.100046
0.129146 0.092566 0.126299
0.130461 0.154374 0.156225
0.135482 0.195318 0.195723
0.136115 0.259989 0.259653
0.132800 0.334995 0.332442
0.126665 0.409961 0.402684
0.118586 0.483849 0.469997
0.109341 0.560461 0.537048
0.099072 0.639006 0.601844
0.000000 0.753253 0.656649
0.039041 0.792762 0.706791
0.276287 0.000000 0.065267
0.310939 0.020458 0.094777
0.337999 0.067449 0.128692
0.302183 0.066059 0.134896
0.248141 0.063786 0.130194
0.195475 0.061746 0.125769
0.141950 0.059979 0.121706
0.120928 0.102545 0.144387
0.120701 0.169968 0.173476
0.121989 0.232437 0.232432
0.120047 0.309213 0.301079
0.115304 0.386261 0.368419
0.107947 0.461936 0.430688
0.098870 0.535901 0.488094
0.088536 0.610441 0.539424
0.000000 0.723960 0.575066
0.034507 0.764097 0.618729
0.318902 0.000000 0.085456
0.360462 0.017447 0.119213
0.393213 0.065804 0.156730
0.360878 0.064676 0.165824
0.303918 0.062339 0.159830
0.249502 0.060156 0.154063
0.196497 0.058191 0.148656
0.142523 0.057261 0.143558
0.112583 0.114752 0.160892
0.108806 0.204992 0.206846
0.107697 0.279215 0.270159
0.104280 0.361153 0.333703
0.098210 0.441985 0.393106
0.089783 0.518730 0.444087
0.079890 0.593137 0.487358
0.000000 0.706250 0.497065
0.029246 0.750965 0.531062
0.365163 0.000000 0.107519
0.413763 0.014215 0.145915
0.451838 0.063952 0.187267
0.423528 0.063121 0.199911
0.363039 0.060833 0.192571
0.305676 0.058605 0.185347
0.250881 0.056517 0.178427
0.197531 0.054630 0.171962
0.140150 0.070000 0.162298
0.102157 0.146089 0.193881
0.096392 0.247940 0.241678
0.093708 0.328206 0.299730
0.088894 0.415929 0.355892
0.081630 0.502397 0.404307
0.072322 0.580557 0.440136
0.000000 0.697179 0.437562
0.024150 0.752962 0.444645
0.417720 0.000000 0.131811
0.486717 0.010828 0.176004
0.524723 0.062252 0.223911
0.496481 0.061876 0.263435
0.428223 0.059639 0.254364
0.367146 0.057506 0.245482
0.309120 0.055408 0.236746
0.253628 0.053420 0.228390
0.195392 0.067383 0.215970
0.134840 0.101610 0.198858
0.091070 0.185993 0.228541
0.084302 0.292361 0.269352
0.080083 0.379529 0.319889
0.073983 0.473657 0.365828
0.065692 0.567732 0.399600
0.000000 0.689420 0.387230
0.021370 0.749515 0.389669
0.490687 0.000000 0.159277
0.563834 0.006906 0.208962
0.602993 0.060412 0.293947
0.582736 0.060384 0.344672
0.502329 0.058259 0.333459
0.433696 0.056234 0.322409
0.372003 0.054275 0.311611
0.313245 0.052322 0.300973
0.248258 0.075852 0.280953
0.186082 0.108186 0.259029
0.128005 0.141917 0.238298
0.080266 0.227149 0.256679
0.072534 0.338656 0.288869
0.066896 0.433303 0.329225
0.059656 0.534458 0.361493
0.000000 0.675953 0.347316
0.019078 0.745933 0.342960
0.564155 0.000000 0.189143
0.642946 0.002206 0.274120
0.677919 0.057665 0.369498
0.665000 0.057818 0.433095
0.588124 0.056376 0.421655
0.508039 0.054506 0.408071
0.439086 0.052690 0.394701
0.375015 0.054519 0.379801
0.301075 0.087667 0.349797
0.235308 0.119472 0.322137
0.175957 0.150963 0.296495
0.120655 0.183954 0.272138
0.069776 0.269657 0.277689
0.061141 0.386952 0.299194
0.054234 0.489651 0.326164
0.000000 0.621120 0.312707
0.017267 0.733703 0.307820
0.637212 0.000000 0.224771
0.716968 0.000000 0.345807
0.748727 0.054174 0.450597
0.742062 0.054429 0.528198
0.669653 0.053490 0.517463
0.593317 0.052250 0.503904
0.513599 0.050619 0.487668
0.432260 0.069486 0.458793
0.353218 0.103247 0.422068
0.283254 0.135071 0.388061
0.221019 0.165644 0.356663
0.164893 0.196012 0.327474
0.112706 0.228001 0.299618
0.059635 0.313623 0.290881
0.050188 0.437386 0.299155
0.000000 0.561506 0.283620
0.015921 0.678157 0.279416
0.710721 0.000000 0.290119
0.785609 0.000000 0.421229
0.813383 0.050632 0.533535
0.812053 0.050963 0.626850
0.745434 0.049954 0.619561
0.674097 0.049068 0.607597
0.598317 0.048011 0.591751
0.492106 0.086865 0.541920
0.402758 0.123360 0.496040
0.328843 0.155450 0.455481
0.263421 0.185652 0.417921
0.205224 0.214692 0.383193
0.152763 0.243643 0.350811
0.104068 0.274352 0.319746
0.049886 0.359160 0.295465
0.000000 0.502571 0.259119
0.014981 0.616790 0.257359
0.780288 0.000000 0.360087
0.849367 0.000000 0.500763
0.874920 0.046671 0.622886
0.878549 0.047007 0.733992
0.814803 0.046268 0.726745
0.748628 0.045390 0.717302
0.665588 0.063641 0.685869
0.561805 0.105512 0.629030
0.454493 0.146872 0.571065
0.369818 0.181297 0.521576
0.301657 0.211456 0.477895
0.241369 0.239747 0.437472
0.187749 0.266951 0.400054
0.139433 0.294182 0.365048
0.094649 0.323318 0.331258
0.011683 0.434786 0.255422
0.014279 0.554622 0.239757
0.845253 0.000000 0.434633
0.907762 0.000000 0.581670
0.966269 0.000000 0.777575
0.969560 0.000000 0.913746
0.904595 0.005692 0.909034
0.806706 0.048142 0.845086
0.706198 0.090151 0.780050
0.599509 0.132215 0.711792
0.488866 0.173282 0.642605
0.374992 0.212826 0.573677
0.297212 0.244736 0.516930
0.237776 0.271953 0.468797
0.185755 0.297621 0.425027
0.139698 0.322955 0.384821
0.098034 0.349657 0.346860
0.058525 0.381022 0.308468
0.022793 0.471716 0.259305
0.904573 0.000000 0.509921
0.963161 0.000000 0.668415
1.000000 0.014145 0.859827
1.000000 0.014247 0.998635
0.940477 0.043848 0.960359
0.844276 0.091713 0.896289
0.750089 0.133035 0.831636
0.655122 0.171575 0.766833
0.555741 0.209957 0.700526
0.451496 0.247705 0.633064
0.344264 0.283621 0.566393
0.271307 0.312427 0.511406
0.218478 0.337016 0.464101
0.172177 0.359881 0.420946
0.131133 0.382172 0.381110
0.094061 0.405420 0.343344
0.059343 0.432276 0.305361
0.180324 0.117644 0.000000
0.133115 0.115038 0.000000
0.079232 0.108953 0.008247
0.000000 0.099438 0.030843
0.000000 0.136475 0.058204
0.000000 0.175019 0.088942
0.000000 0.220954 0.122753
0.000000 0.270805 0.159094
0.000000 0.320742 0.197494
0.000000 0.372806 0.237541
0.000000 0.439752 0.279672
0.000000 0.504691 0.321738
0.000000 0.577094 0.392184
0.000000 0.650586 0.468599
0.000000 0.728456 0.559348
